!!!!SEGMENT: pl-stab--3a--001-002_dankowski-adalbert--vespere-pastorales-confitebor.krn
!!!cenid: 18xx:3484
!!!COM: Dankowski, Adalbert
!!!COM-rismid: pe30000793
!!!CDT: ~1760-~1836
!!!CNT: Polish
!!!OPR: Vespere Pastorales
!!!OTL: Confitebor
!!!OMV: 002
!!!PDT: 1804
!!!AGN: Sacred; Vespers
!!!SMS-siglum: PL-STAb
!!!SMS-shelfmark: 3a
!!!SMS-shelfwork: 001-002 M
!!!SMS-variant:
!!!SMS-altvar:
!!!NIFC-rismid: 301050554
!!!URL-scan: https://repozytorium.nifc.pl/islandora/object/pl-stab%3A928/datastream/PDF/view
!!!ONB-nifc: UWAGA: części Nieszporów: 1. Dixit Dominus, 2. Confitebor, 3. Beatus vir, 4. Laudate pueri, 5. Magnificat, 6. Fecit potentiam, 7. Gloria
!!!key: C
**kern	**dynam	**fba	**kern	**dynam	**kern	**dynam	**kern	**text	**kern	**text	**kern	**text	**kern	**text	**kern	**kern
*group4	*	*	*group3	*	*group3	*	*group2	*	*group2	*	*group2	*	*group2	*	*group1	*group1
*part9	*part9	*	*part8	*part8	*part7	*part7	*part6	*part6	*part5	*part5	*part4	*part4	*part3	*part3	*part2	*part1
*staff9	*	*	*staff8	*	*staff7	*	*staff6	*staff6	*staff5	*staff5	*staff4	*staff4	*staff3	*staff3	*staff2	*staff1
*I"Organo	*	*	*I"Violino Secondo	*	*I"Violino Primo	*	*I"Baſso	*	*I"Tenor	*	*I"Alto	*	*I"Canto	*	*I"Cornu Secondo Ex G:	*I"Cornu Primo Ex G.
*I'[Org]	*	*	*I'[Vl 2]	*	*I'[Vl 1]	*	*I'[B]	*	*I'[T]	*	*I'[A]	*	*I'[S]	*	*I'[Cor 2 in G]	*I'[Cor 1 in G]
*Iorgan	*	*	*Ivioln	*	*Ivioln	*	*Ibass	*	*Itenor	*	*Ialto	*	*Isoprn	*	*Icor	*Icor
*ICklav	*	*	*ICstr	*	*ICstr	*	*ICvox	*	*ICvox	*	*ICvox	*	*ICvox	*	*ICbras	*ICbras
*IGcont	*	*	*IGacmp	*	*IGacmp	*	*IGcoro	*	*IGcoro	*	*IGcoro	*	*IGcoro	*	*IGacmp	*IGacmp
*clefF4	*	*	*clefG2	*	*clefG2	*	*clefF4	*	*clefC4	*	*clefC3	*	*clefC1	*	*clefG2	*clefG2
*	*	*	*	*	*	*	*	*	*	*	*	*	*	*	*ITrd3c5	*ITrd3c5
*k[f#]	*	*	*k[f#]	*	*k[f#]	*	*k[f#]	*	*k[f#]	*	*k[f#]	*	*k[f#]	*	*k[f#]	*k[f#]
*C:	*	*	*C:	*	*C:	*	*C:	*	*C:	*	*C:	*	*C:	*	*C:	*C:
*M3/4	*	*	*M3/4	*	*M3/4	*	*M3/4	*	*M3/4	*	*M3/4	*	*M3/4	*	*M3/4	*M3/4
!	!	!	!	!	!	!	!	!	!	!	!	!	!	!	!	!LO:TX:a:B:t=allo moderato
!LO:TX:a:B:t=allo moderato	!	!	!LO:TX:a:B:t=allo Moderato	!	!LO:TX:a:B:t=allo moder&colon;	!	!LO:TX:a:B:t=allo mod.	!	!LO:TX:a:B:t=allo mod.	!	!LO:TX:a:B:t=allo mod	!	!LO:TX:a:B:t=allo mode	!	!LO:TX:a:B:t=allo moderato	!
4r	.	.	4r	.	4d/	.	4r	.	4r	.	4d\	Con-	4r	.	4r	4r
=1	=1	=1	=1	=1	=1	=1	=1	=1	=1	=1	=1	=1	=1	=1	=1	=1
!	!	!	!	!LO:DY:a:t=p&colon;	!	!	!	!	!	!	!LO:TX:a:t=Solo	!	!	!	!	!
4GG/	.	.	4B/ 4d/	p	4g/	.	0.r	.	0.r	.	4g\	-fi-	0.r	.	0.r	0.r
4G\	.	.	4B/ 4d/	.	8b/L	.	.	.	.	.	8b\L	-te-	.	.	.	.
.	.	.	.	.	8g/	.	.	.	.	.	8g\J	.	.	.	.	.
4F#\	.	5	4A/ 4d/	.	8cc/	.	.	.	.	.	8cc\L	-bor	.	.	.	.
.	.	.	.	.	8a/J	.	.	.	.	.	8a\J	.	.	.	.	.
=2	=2	=2	=2	=2	=2	=2	=2-	=2	=2-	=2	=2	=2	=2-	=2	=2-	=2-
*	*	*	*	*	*2\right	*	*	*	*	*	*2\right	*	*	*	*	*
!LO:TX:a:t=Solo	!	!	!	!	!	!LO:DY:a:t=p.	!	!	!	!	!	!	!	!	!	!
4G\	.	.	4B/ 4d/	.	2dd\	p	.	.	.	.	2dd\	ti-	.	.	.	.
4GG/	.	.	4B/ 4d/	.	.	.	.	.	.	.	.	.	.	.	.	.
4BB/	.	6	4B/ 4d/	.	8b/L	.	.	.	.	.	8b\L	-bi	.	.	.	.
.	.	.	.	.	8g/J	.	.	.	.	.	8g\J	.	.	.	.	.
=3	=3	=3	=3	=3	=3	=3	=3-	=3	=3-	=3	=3	=3	=3-	=3	=3-	=3-
4C/	.	6:	4e/	.	8a/L	.	.	.	.	.	8a\L	Do-	.	.	.	.
.	.	.	.	.	8b/	.	.	.	.	.	8b\	.	.	.	.	.
4C/	.	.	4e/	.	8cc/	.	.	.	.	.	8cc\	.	.	.	.	.
.	.	.	.	.	8a/	.	.	.	.	.	8a\J	.	.	.	.	.
4D\	.	.	4c/	.	8g/	.	.	.	.	.	8g\L	-mi-	.	.	.	.
.	.	.	.	.	8f#/J	.	.	.	.	.	8f#\J	.	.	.	.	.
=4	=4	=4	=4	=4	=4	=4	=4-	=4	=4-	=4	=4	=4	=4-	=4	=4-	=4-
4G\	.	.	4B/	.	8g/L	.	.	.	.	.	2g\	-ne	.	.	.	.
.	.	.	.	.	8b/J	.	.	.	.	.	.	.	.	.	.	.
4GG/	.	.	4B/	.	4g/	.	.	.	.	.	.	.	.	.	.	.
4r	.	.	4r	.	4d/	.	.	.	.	.	4d\	in	.	.	.	.
=5	=5	=5	=5	=5	=5	=5	=5-	=5	=5-	=5	=5	=5	=5-	=5	=5-	=5-
4GG/	.	.	4B/ 4d/	.	4g/	.	0.r	.	0.r	.	4g\	to-	0.r	.	0.r	0.r
4G\	.	.	4B/ 4d/	.	8b/L	.	.	.	.	.	8b\L	.	.	.	.	.
.	.	.	.	.	8g/	.	.	.	.	.	8g\J	.	.	.	.	.
4F#\	.	6 5	4A/ 4d/	.	8cc/	.	.	.	.	.	8cc\L	-to	.	.	.	.
.	.	.	.	.	8a/J	.	.	.	.	.	8a\J	.	.	.	.	.
!	!	!	!	!	!	!	!	!	!	!	!LO:LB:g=original	!	!	!	!	!
=6	=6	=6	=6	=6	=6	=6	=6-	=6	=6-	=6	=6	=6	=6-	=6	=6-	=6-
4G\	.	.	4B/ 4d/	.	2dd\	.	.	.	.	.	2dd\	Cor-	.	.	.	.
4GG/	.	.	4B/ 4d/	.	.	.	.	.	.	.	.	.	.	.	.	.
4BB/	.	6	4B/ 4d/	.	8b/L	.	.	.	.	.	8b\L	-de	.	.	.	.
.	.	.	.	.	8g/J	.	.	.	.	.	8g\J	.	.	.	.	.
=7	=7	=7	=7	=7	=7	=7	=7-	=7	=7-	=7	=7	=7	=7-	=7	=7-	=7-
4C/	.	6	4e/	.	8a/L	.	.	.	.	.	8a\L	me-	.	.	.	.
.	.	.	.	.	8b/	.	.	.	.	.	8b\	.	.	.	.	.
4C/	.	.	4e/	.	8cc/	.	.	.	.	.	8cc\	.	.	.	.	.
.	.	.	.	.	8a/	.	.	.	.	.	8a\J	.	.	.	.	.
4C#X/	.	5	4e/	.	8g/	.	.	.	.	.	8b\L	.	.	.	.	.
.	.	.	.	.	8f#/J	.	.	.	.	.	8g\J	.	.	.	.	.
!	!	!	!	!	!LO:LB:g=original	!	!	!	!	!	!	!	!	!	!	!
=8	=8	=8	=8	=8	=8	=8	=8-	=8	=8-	=8	=8	=8	=8-	=8	=8-	=8-
4D\	.	.	4B/	.	4g/	.	.	.	.	.	2f#\	-o	.	.	.	.
4DD/	.	.	4A/	.	4f#/	.	.	.	.	.	.	.	.	.	.	.
4r	.	.	4r	.	4d/	.	.	.	.	.	4d\	in	.	.	.	.
!LO:LB:g=original	!	!	!LO:LB:g=original	!	!	!	!	!	!	!	!	!	!	!	!	!
=9	=9	=9	=9	=9	=9	=9	=9-	=9	=9-	=9	=9	=9	=9-	=9	=9-	=9-
*2\right	*	*	*	*	*	*	*	*	*	*	*	*	*	*	*	*
2F#\	.	6 5	4A/ 4d/	.	8cc\L	.	0.r	.	0.r	.	8cc\L	Con-	0.r	.	0.r	0.r
.	.	.	.	.	8dd\	.	.	.	.	.	8dd\	.	.	.	.	.
.	.	.	4A/ 4d/	.	8cc\	.	.	.	.	.	8cc\	.	.	.	.	.
.	.	.	.	.	8a\J	.	.	.	.	.	8a\J	.	.	.	.	.
4G\	.	.	4B/ 4d/	.	8b/L	.	.	.	.	.	8b\L	.	.	.	.	.
.	.	.	.	.	8g/J	.	.	.	.	.	8g\J	.	.	.	.	.
=10	=10	=10	=10	=10	=10	=10	=10-	=10	=10-	=10	=10	=10	=10-	=10	=10-	=10-
4d\	.	x 3:	4A/ 4d/	.	4f#/	.	.	.	.	.	4f#\	-si-	.	.	.	.
4c\	.	.	4A/ 4d/	.	8f#/L	.	.	.	.	.	8f#\L	-li-	.	.	.	.
.	.	.	.	.	8d/J	.	.	.	.	.	8d\J	.	.	.	.	.
4B\	.	6 x	4B/ 4d/	.	4g/	.	.	.	.	.	4g\	-o	.	.	.	.
=11	=11	=11	=11	=11	=11	=11	=11-	=11	=11-	=11	=11	=11	=11-	=11	=11-	=11-
2F#\	.	6 5	4A/ 4d/	.	8cc\L	.	.	.	.	.	8cc\L	Juſ-	.	.	.	.
.	.	.	.	.	8dd\	.	.	.	.	.	8dd\	.	.	.	.	.
.	.	.	4A/ 4d/	.	8cc\	.	.	.	.	.	8cc\	.	.	.	.	.
.	.	.	.	.	8a\J	.	.	.	.	.	8a\J	.	.	.	.	.
4G\	.	.	4B/ 4d/	.	8b/L	.	.	.	.	.	8b\L	.	.	.	.	.
.	.	.	.	.	8g/J	.	.	.	.	.	8g\J	.	.	.	.	.
!	!	!	!	!	!	!	!	!	!	!	!LO:LB:g=original	!	!	!	!	!
=12	=12	=12	=12	=12	=12	=12	=12-	=12	=12-	=12	=12	=12	=12-	=12	=12-	=12-
4d\	.	7: x	4A/ 4d/	.	4f#/	.	.	.	.	.	4f#\	-to-	.	.	.	.
4c\	.	.	4A/ 4d/	.	8f#/L	.	.	.	.	.	8f#\L	.	.	.	.	.
.	.	.	.	.	8d/J	.	.	.	.	.	8d\J	.	.	.	.	.
4B\	.	6 x	4B/ 4d/	.	4g/	.	.	.	.	.	4g\	-rum	.	.	.	.
=13	=13	=13	=13	=13	=13	=13	=13-	=13	=13-	=13	=13	=13	=13-	=13	=13-	=13-
4A\	.	6: 3:	4c/	.	8g/L	.	0.r	.	0.r	.	8g\L	et	0.r	.	0.r	0.r
.	.	.	.	.	8f#/J	.	.	.	.	.	8f#\J	.	.	.	.	.
4F#\	.	.	4A/	.	8dd/L	.	.	.	.	.	8dd\L	Con-	.	.	.	.
.	.	.	.	.	8cc/	.	.	.	.	.	8cc\J	.	.	.	.	.
4D\	.	.	4A/	.	8a/	.	.	.	.	.	8a\L	-gre-	.	.	.	.
.	.	.	.	.	8f#/J	.	.	.	.	.	8f#\J	.	.	.	.	.
=14	=14	=14	=14	=14	=14	=14	=14-	=14	=14-	=14	=14	=14	=14-	=14	=14-	=14-
4G\	.	.	4B/	.	4g/	.	.	.	.	.	4g\	ga-	.	.	.	.
4GG/	.	.	4d/	.	8b/L	.	.	.	.	.	8b\L	.	.	.	.	.
.	.	.	.	.	8g/	.	.	.	.	.	8g\J	.	.	.	.	.
4G\	.	.	4d/	.	8a/	.	.	.	.	.	8a\L	-ti-	.	.	.	.
.	.	.	.	.	8b/J	.	.	.	.	.	8b\J	.	.	.	.	.
=15	=15	=15	=15	=15	=15	=15	=15-	=15	=15-	=15	=15	=15	=15-	=15	=15-	=15-
4c\	.	6 x	4e/	.	8cc/L	.	.	.	.	.	8cc\L	-o-	.	.	.	.
.	.	.	.	.	8a/J	.	.	.	.	.	8a\J	.	.	.	.	.
4d\	.	x 4	4B/	.	4g/	.	.	.	.	.	4g\	.	.	.	.	.
4D\	.	x 3	4A/	.	4f#/	.	.	.	.	.	4f#\	.	.	.	.	.
!	!	!	!	!	!LO:LB:g=original	!	!	!	!	!	!	!	!	!	!	!
=16	=16	=16	=16	=16	=16	=16	=16	=16	=16	=16	=16	=16	=16	=16	=16	=16
4G\	.	.	8B/L	.	8g/L	.	.	.	.	.	4g\	-ne	.	.	.	.
.	.	.	16d/L	.	16b/L	.	.	.	.	.	.	.	.	.	.	.
.	.	.	16c/JJ	.	16a/JJ	.	.	.	.	.	.	.	.	.	.	.
!	!	!	!	!LO:DY:a:t=for	!	!LO:DY:a:t=for.	!	!	!	!	!	!	!	!	!	!
4GG/	.	.	8B/L	f	8g/L	f	.	.	.	.	4r	.	.	.	.	.
.	.	.	8d/	.	8d/	.	.	.	.	.	.	.	.	.	.	.
4r	.	.	8e/	.	8e/	.	.	.	.	.	4r	.	.	.	.	.
.	.	.	8f#/J	.	8f#/J	.	.	.	.	.	.	.	.	.	.	.
=17	=17	=17	=17	=17	=17	=17	=17	=17	=17	=17	=17	=17	=17	=17	=17	=17
!LO:TX:a:t=Tutti	!	!	!	!	!	!	!	!	!	!	!	!	!	!	!	!
4G\	.	.	4g/	.	4g/	.	(>4G\	Ma-	4G/	Ma-	4g\	Ma-	(>4g\	ma-	4G/	4g\
8B'>\L	.	.	8b/L	.	8b/L	.	8B\L)	.	8B/L	.	8b\L	.	8b\L)	.	4r	4r
8G'>\	.	.	8g/	.	8g/	.	8G\J	.	8G/J	.	8g\J	.	8g\J	.	.	.
8F#'>\	.	.	8f#/	.	8f#/	.	8F#\L	-gna	8F#/L	-gna	8f#\L	-gna	8f#/L	-gna	4r	4r
8D'>\J	.	.	8d/J	.	8d/J	.	8D\J	.	8D/J	.	8d\J	.	8d/J	.	.	.
!LO:LB:g=original	!	!	!	!	!	!	!	!	!	!	!LO:PB:g=original	!	!	!	!	!
=18	=18	=18	=18	=18	=18	=18	=18	=18	=18	=18	=18	=18	=18	=18	=18	=18
8G'>\L	.	.	8g/L	.	8g/L	.	8G\L	o-	8G/L	o-	8g\L	O-	8g\L	O-	4G/	4g\
8F#'>\	.	.	8f#/	.	8f#/	.	8F#\J	.	8F#/J	.	8f#\J	.	8f#\J	.	.	.
8G'>\	.	.	8g/	.	8g/	.	8G\L	-pe-	8G\L	-pe-	8g\L	-pe-	8g\L	-pe-	8G/L	8g\L
8B'>\J	.	.	8b/J	.	8b/J	.	8B\J	.	8B\J	.	8b\J	.	8b\J	.	8B/J	8b\J
4d\	.	.	4dd\	.	4dd\	.	4d\	-ra	4d\	-ra	4dd\	-ra	4dd\	-ra	4d/	4dd\
!	!	!	!LO:LB:g=original	!	!	!	!	!	!	!	!	!	!	!	!	!
=19	=19	=19	=19	=19	=19	=19	=19	=19	=19	=19	=19	=19	=19	=19	=19	=19
4G'>\	.	.	4g/	.	4g/	.	8G\	Do-	8G/	Do-	8g\	Do-	8g\	Do-	4G/	4g\
.	.	.	.	.	.	.	8G\	-mi-	8G/	-mi-	8g\	-mi-	8g\	-mi-	.	.
8B'>\L	.	.	8b/L	.	8b/L	.	8B\L	-ni	8B/L	-ni	8b\L	-ni	8b\L	-ni	4r	4r
8G'>\	.	.	8g/	.	8g/	.	8G\J	.	8G/J	.	8g\J	.	8g\J	.	.	.
8F#'>\	.	.	8f#/	.	8f#/	.	8F#\L	ex	8F#/L	ex	8f#\L	ex	8f#/L	ex	4r	4r
8D'>\J	.	.	8d/J	.	8d/J	.	8D\J	.	8D/J	.	8d\J	.	8d/J	.	.	.
=20	=20	=20	=20	=20	=20	=20	=20	=20	=20	=20	=20	=20	=20	=20	=20	=20
8G'>\L	.	.	8g/L	.	8g/L	.	8G\L	qui-	8G/L	qui-	8g\L	qui-	8g\L	qui-	4G/	4g\
8F#'>\	.	.	8f#/	.	8f#/	.	8F#\J	.	8F#/J	.	8f#\J	.	8f#\J	.	.	.
!	!	!	!	!	!	!	!LO:LB:g=original	!	!	!	!	!	!LO:LB:g=original	!	!	!
8G'>\	.	.	8g/	.	8g/	.	8G\L	-ſi-	8G/L	-si-	8g\L	-si-	8g\L	-si-	8G/L	8g\L
8B'>\J	.	.	8b/J	.	8b/J	.	8B\J	.	8B/J	.	8b\J	.	8b\J	.	8B/J	8b\J
4G'>\	.	.	4g/	.	4g/	.	4G\	-ta	4G/	-ta	4g\	-ta	4g\	-ta	4G/	4g\
!	!	!	!	!	!	!	!	!	!LO:LB:g=original	!	!	!	!	!	!	!LO:LB:g=original
=21	=21	=21	=21	=21	=21	=21	=21	=21	=21	=21	=21	=21	=21	=21	=21	=21
4c'>\	.	.	4cc\	.	4cc\	.	4c\	in	4c\	in	4cc\	in	4cc\	in	0.r	0.r
4c'>\	.	.	4cc\	.	4cc\	.	4c\	o-	4c\	o-	4cc\	o-	4cc\	o-	.	.
8A'>\L	.	.	8a/L	.	8a/L	.	8A\L	-mnes	8A/L	-mnes	8a\L	-mnes	8a\L	-mnes	.	.
8F#'>\J	.	.	8f#/J	.	8f#/J	.	8F#\J	.	8F#/J	.	8f#\J	.	8f#\J	.	.	.
=22	=22	=22	=22	=22	=22	=22	=22	=22	=22	=22	=22	=22	=22	=22	=22-	=22-
4G'>\	.	.	4g/	.	4g/	.	4G\	vo-	4G/	vo-	4g\	vo-	4g\	vo-	.	.
8B'>\L	.	.	8b\L	.	8b/L	.	8B\L	.	8B\L	.	8b\L	.	8b\L	.	.	.
8G'>\	.	.	8g\	.	8g/J	.	8G\J	.	8G\J	.	8g\J	.	8g\J	.	.	.
8B'>\	.	.	8b\	.	8b\L	.	8B\L	-lun-	8B\L	-lun-	8b\L	-lun-	8b\L	-lun-	.	.
8d'>\J	.	.	8dd\J	.	8dd\J	.	8d\J	.	8d\J	.	8dd\J	.	8dd\J	.	.	.
!	!	!	!	!	!	!	!	!	!	!	!LO:LB:g=original	!	!	!	!	!
=23	=23	=23	=23	=23	=23	=23	=23	=23	=23	=23	=23	=23	=23	=23	=23-	=23-
*	*	*	*	*	*	*	*2\right	*	*2\right	*	*	*	*2\right	*	*	*
4c'>\	.	.	4cc\	.	4cc\	.	2c\	-ta-	2c\	-ta-	2cc\	-ta-	2cc\	-ta-	.	.
4c'>\	.	.	4cc\	.	4cc\	.	.	.	.	.	.	.	.	.	.	.
8A'>\L	.	.	8a/L	.	8a/L	.	8A\L	-tis	8A/L	-tes	8a\L	-tes	8a\L	-tes	.	.
8F#'>\J	.	.	8f#/J	.	8f#/J	.	8F#\J	.	8F#/J	.	8f#\J	.	8f#\J	.	.	.
!	!	!	!	!	!LO:LB:g=original	!	!	!	!	!	!	!	!	!	!	!
=24	=24	=24	=24	=24	=24	=24	=24	=24	=24	=24	=24	=24	=24	=24	=24-	=24-
(<2.G\	.	.	8g/L	.	8g/L	.	4G\	e-	4G/	e-	4g\	e-	4g\	e-	.	.
.	.	.	8b/J	.	8b/J	.	.	.	.	.	.	.	.	.	.	.
.	.	.	4g/	.	4g/	.	4G\	-ius	4G/	-ius	4g\	-ius	4b\	-ius	.	.
.	.	.	4d/	.	8b\L	.	4G\	Con-	4d\	Con-	4g\	Con-	4b\	Con-	.	.
.	.	.	.	.	8cc\J	.	.	.	.	.	.	.	.	.	.	.
!	!	!	!	!	!	!	!	!	!	!	!	!	!	!	!LO:LB:g=original	!
=25	=25	=25	=25	=25	=25	=25	=25	=25	=25	=25	=25	=25	=25	=25	=25	=25
*	*	*	*	*	*	*	*	*	*	*	*	*	*	*	*	*2\right
[<2.GG/)	.	.	2.B/ [<2.d/	.	8ddL	.	4.G\	-feſ-	4.d\	-feſ-	4.g\	-feſ-	4.b\	-feſ-	2.B/	2.g\
.	.	.	.	.	8b	.	.	.	.	.	.	.	.	.	.	.
.	.	.	.	.	8ee	.	.	.	.	.	.	.	.	.	.	.
.	.	.	.	.	8dd	.	8G\	-si-	8d\	-si-	8g\	-si-	8b\	-si-	.	.
.	.	.	.	.	8b	.	4G\	-o	4d\	-o	4g\	-o	4b\	-o	.	.
.	.	.	.	.	8ccJ	.	.	.	.	.	.	.	.	.	.	.
!	!	!	!	!	!	!	!LO:LB:g=original	!	!	!	!	!	!	!	!	!
=26	=26	=26	=26	=26	=26	=26	=26	=26	=26	=26	=26	=26	=26	=26	=26	=26
2.GG/_<	.	.	2.B/ 2.d]/	.	8ddL	.	2G\	et	2d\	et	2g\	et	2b\	et	2.B/	2.g\
.	.	.	.	.	16eeL	.	.	.	.	.	.	.	.	.	.	.
.	.	.	.	.	16ddJJ	.	.	.	.	.	.	.	.	.	.	.
.	.	.	.	.	4b	.	.	.	.	.	.	.	.	.	.	.
.	.	.	.	.	8ccL	.	4G\	ma-	4d\	ma-	4g\	ma-	4b\	ma-	.	.
.	.	.	.	.	8ddJ	.	.	.	.	.	.	.	.	.	.	.
!LO:LB:g=original	!	!	!	!	!	!	!	!	!	!	!	!	!LO:LB:g=original	!	!	!
=27	=27	=27	=27	=27	=27	=27	=27	=27	=27	=27	=27	=27	=27	=27	=27	=27
2.GG/_<	.	.	2.B/ 2.d/	.	8dd\L	.	2G\	-gni-	2d\	-gni-	2g\	-gni-	2b\	-gni-	2.B/	2.g\
.	.	.	.	.	8b\	.	.	.	.	.	.	.	.	.	.	.
.	.	.	.	.	8ee\	.	.	.	.	.	.	.	.	.	.	.
.	.	.	.	.	8dd\	.	.	.	.	.	.	.	.	.	.	.
.	.	.	.	.	8b\	.	4G\	-fi-	4d\	-fi-	4g\	-fi-	4b\	-fi-	.	.
.	.	.	.	.	8cc\J	.	.	.	.	.	.	.	.	.	.	.
=28	=28	=28	=28	=28	=28	=28	=28	=28	=28	=28	=28	=28	=28	=28	=28	=28
2.GG/_<	.	.	2.B/ 2.d/	.	8dd\L	.	4.G\	-cen-	4.d\	-cen-	4.g\	-cen-	4.b\	-cen-	2.B/	2.g\
.	.	.	.	.	16ee\L	.	.	.	.	.	.	.	.	.	.	.
.	.	.	.	.	16dd\JJ	.	.	.	.	.	.	.	.	.	.	.
.	.	.	.	.	4b\	.	.	.	.	.	.	.	.	.	.	.
.	.	.	.	.	.	.	8G\	-ti-	8d\	-ti-	8g\	-ti-	8b\	-ti-	.	.
.	.	.	.	.	8b\L	.	4G\	-a	4d\	-a	4g\	-a	4b\	-a	.	.
.	.	.	.	.	8g\J	.	.	.	.	.	.	.	.	.	.	.
!	!	!	!LO:LB:g=original	!	!	!	!	!	!LO:LB:g=original	!	!	!	!	!	!	!
=29	=29	=29	=29	=29	=29	=29	=29	=29	=29	=29	=29	=29	=29	=29	=29	=29
2.GG/_<	.	.	2.B/ 2.d/	.	8a/L	.	2G\	o-	2d\	o-	2g\	o-	2b\	o-	2.B/	2.g\
.	.	.	.	.	8b/J	.	.	.	.	.	.	.	.	.	.	.
.	.	.	.	.	8g/L	.	.	.	.	.	.	.	.	.	.	.
.	.	.	.	.	8d/	.	.	.	.	.	.	.	.	.	.	.
.	.	.	.	.	8g/	.	4G\	-pus	4d\	-pus	4g\	-pus	4b\	-pus	.	.
.	.	.	.	.	8b/J	.	.	.	.	.	.	.	.	.	.	.
=30	=30	=30	=30	=30	=30	=30	=30	=30	=30	=30	=30	=30	=30	=30	=30	=30
2.GG/_<	.	.	2.B/ 2.d/	.	8dd\L	.	2G\	e-	2d\	e-	2g\	e-	2b\	e-	2.B/	2.g\
.	.	.	.	.	8b\J	.	.	.	.	.	.	.	.	.	.	.
.	.	.	.	.	4g/	.	.	.	.	.	.	.	.	.	.	.
.	.	.	.	.	8a/L	.	4G\	-ius	4d\	-ius	4g\	-ius	4b\	-ius	.	.
.	.	.	.	.	8b/J	.	.	.	.	.	.	.	.	.	.	.
!	!	!	!	!	!LO:LB:g=original	!	!	!	!	!	!LO:LB:g=original	!	!	!	!	!
=31	=31	=31	=31	=31	=31	=31	=31	=31	=31	=31	=31	=31	=31	=31	=31	=31
4GG/]	.	.	8g/L	.	8gg\L	.	2G\	et	2d\	et	2g\	et	2b\	et	2.G/	2.g\
.	.	.	16a/L	.	16aa\L	.	.	.	.	.	.	.	.	.	.	.
.	.	.	16b/JJ	.	16bb\JJ	.	.	.	.	.	.	.	.	.	.	.
4G\	.	.	8g/L	.	8gg\L	.	.	.	.	.	.	.	.	.	.	.
.	.	.	8f#/	.	8ff#\	.	.	.	.	.	.	.	.	.	.	.
4G\	.	.	8e/	.	8ee\	.	4G\	iuſ-	4G/	iuſ-	4b\	Juſ-	4dd\	Jus-	.	.
.	.	.	8d/J	.	8dd\J	.	.	.	.	.	.	.	.	.	.	.
=32	=32	=32	=32	=32	=32	=32	=32	=32	=32	=32	=32	=32	=32	=32	=32	=32
4G\	.	6 4	4e/	.	4ee\	.	2G\	-ti-	2G/	-ti-	2cc\	-ti-	2ee\	-ti-	2.G/	2.g\
4G\	.	.	8e/L	.	8ee\L	.	.	.	.	.	.	.	.	.	.	.
.	.	.	8g/	.	8gg\	.	.	.	.	.	.	.	.	.	.	.
4G\	.	7 2	8f#/	.	8ff#\	.	4G\	-ti-	4G/	-ti-	4a\	-ti-	4ff#\	-ti-	.	.
.	.	.	8a/J	.	8aa\J	.	.	.	.	.	.	.	.	.	.	.
=33	=33	=33	=33	=33	=33	=33	=33	=33	=33	=33	=33	=33	=33	=33	=33	=33
4G\	.	x 3:	8g/L	.	8gg\L	.	4G\	-a	4G/	-a	4b\	-a	4gg\	-a	2.G/	2.g\
.	.	.	16a/L	.	16aa\L	.	.	.	.	.	.	.	.	.	.	.
.	.	.	16b/JJ	.	16bb\JJ	.	.	.	.	.	.	.	.	.	.	.
4G\	.	.	8g/L	.	8gg\L	.	4G\	e-	4G/	e-	4b\	e-	4dd\	e-	.	.
.	.	.	8f#/	.	8ff#\	.	.	.	.	.	.	.	.	.	.	.
4G\	.	.	8e/	.	8ee\	.	4G\	-ius	4G/	-ius	4b\	-ius	4dd\	-ius	.	.
.	.	.	8d/J	.	8dd\J	.	.	.	.	.	.	.	.	.	.	.
=34	=34	=34	=34	=34	=34	=34	=34	=34	=34	=34	=34	=34	=34	=34	=34	=34
4G\	.	6 4	4e/	.	4ee\	.	2.G\	ma-	2.G/	ma-	2cc\	ma-	2ee\	ma-	2.G/	2.g\
4G\	.	.	8e/L	.	8ee\L	.	.	.	.	.	.	.	.	.	.	.
.	.	.	8g/	.	8gg\	.	.	.	.	.	.	.	.	.	.	.
4G\	.	7 2	8f#/	.	8ff#\	.	.	.	.	.	4a\	.	4ff#\	.	.	.
.	.	.	8a/J	.	8aa\J	.	.	.	.	.	.	.	.	.	.	.
!	!	!	!	!	!	!	!LO:LB:g=original	!	!	!	!	!	!LO:LB:g=original	!	!	!
=35	=35	=35	=35	=35	=35	=35	=35	=35	=35	=35	=35	=35	=35	=35	=35	=35
4G\	.	x 3:	4g/	.	8gg\L	.	2G\	-net	2G/	-net	2b\	-net	2gg\	-net	2.G/	2.g\
.	.	.	.	.	8dd\	.	.	.	.	.	.	.	.	.	.	.
4G\	.	.	4B/ 4d/	.	8dd\	.	.	.	.	.	.	.	.	.	.	.
.	.	.	.	.	8b\	.	.	.	.	.	.	.	.	.	.	.
4G\	.	.	4B/ 4d/	.	8ee\	.	4G\	in	4G/	in	4b\	in	4dd\	in	.	.
.	.	.	.	.	8dd\J	.	.	.	.	.	.	.	.	.	.	.
=36	=36	=36	=36	=36	=36	=36	=36	=36	=36	=36	=36	=36	=36	=36	=36	=36
4F#\	.	6 5	4A/ 4d/	.	8dd\L	.	4F#\	Sae-	4d\	Sae-	4a\	Sae-	4dd\	Sae-	2d/	2a\
.	.	.	.	.	8cc\	.	.	.	.	.	.	.	.	.	.	.
4F#\	.	.	4A/ 4d/	.	8cc	.	4F#\	-cu-	4d\	-cu-	4a\	-cu-	4cc\	-cu-	.	.
.	.	.	.	.	8a\	.	.	.	.	.	.	.	.	.	.	.
4F#\	.	.	4B/ 4d/	.	8b\	.	4G\	-lum	4d\	-lum	4g\	-lum	4b\	-lum	4g\	4b\
.	.	.	.	.	8dd\J	.	.	.	.	.	.	.	.	.	.	.
!	!	!	!	!	!	!	!	!	!	!	!	!	!	!	!	!LO:LB:g=original
=37	=37	=37	=37	=37	=37	=37	=37	=37	=37	=37	=37	=37	=37	=37	=37	=37
4c\	.	6 x	4a/	.	8ee\L	.	4c\	Sae-	(>4e\	Sae-	4a\	Sae-	4cc\	Sae-	4a\	4cc\
.	.	.	.	.	16dd\L	.	.	.	.	.	.	.	.	.	.	.
.	.	.	.	.	16cc\JJ	.	.	.	.	.	.	.	.	.	.	.
4d\	.	x 4	4g/	.	4b\	.	4d\	.	4d\)	.	4g\	.	4b\	.	4g\	4b\
4D\	.	x 3	4e/	.	4a\	.	4D\	-cu-	4d\	-cu-	4f#\	-cu-	4a\	-cu-	4d\	4a\
!LO:LB:g=original	!	!	!	!	!	!	!	!	!	!	!	!	!	!	!LO:LB:g=original	!
=38	=38	=38	=38	=38	=38	=38	=38	=38	=38	=38	=38	=38	=38	=38	=38	=38
[<2.G\	.	.	2.B/ 2.d/	.	8b\L	.	4G\	-li	4d\	-li	4g\	-li	4b\	-li	2.B/	2.g\
.	.	.	.	.	8dd\J	.	.	.	.	.	.	.	.	.	.	.
!	!	!	!	!	!LO:LB:g=original	!	!	!	!	!	!	!	!	!	!	!
.	.	.	.	.	8dd\L	.	4r	.	4r	.	4r	.	4r	.	.	.
.	.	.	.	.	8bb\	.	.	.	.	.	.	.	.	.	.	.
.	.	.	.	.	8ee\	.	4r	.	4r	.	4r	.	4r	.	.	.
.	.	.	.	.	8dd\J	.	.	.	.	.	.	.	.	.	.	.
!	!	!	!LO:LB:g=original	!	!	!	!	!	!LO:LB:g=original	!	!LO:LB:g=original	!	!	!	!	!
=39	=39	=39	=39	=39	=39	=39	=39	=39	=39	=39	=39	=39	=39	=39	=39	=39
2.G\_<	.	.	2.B/ 2.d/	.	8b\L	.	0.r	.	0.r	.	0.r	.	1.r	.	2.B/	2.g\
.	.	.	.	.	16cc\L	.	.	.	.	.	.	.	.	.	.	.
.	.	.	.	.	16b\JJ	.	.	.	.	.	.	.	.	.	.	.
.	.	.	.	.	4g/	.	.	.	.	.	.	.	.	.	.	.
.	.	.	.	.	8b\L	.	.	.	.	.	.	.	.	.	.	.
.	.	.	.	.	8dd\J	.	.	.	.	.	.	.	.	.	.	.
=40	=40	=40	=40	=40	=40-	=40	=40-	=40	=40-	=40	=40-	=40	=40-	=40	=40	=40
2.G\_<	.	.	2.B/ 2.d/	.	8g\L	.	.	.	.	.	.	.	.	.	2.B/	2.g\
.	.	.	.	.	8b\	.	.	.	.	.	.	.	.	.	.	.
.	.	.	.	.	8dd\	.	.	.	.	.	.	.	.	.	.	.
.	.	.	.	.	8b\	.	.	.	.	.	.	.	.	.	.	.
.	.	.	.	.	8ee\	.	.	.	.	.	.	.	.	.	.	.
.	.	.	.	.	8dd\J	.	.	.	.	.	.	.	.	.	.	.
=41	=41	=41	=41	=41	=41-	=41	=41-	=41	=41	=41	=41-	=41	=41-	=41	=41	=41
(<2.G\]	.	.	2.B/ 2.d/	.	8b\L	.	.	.	.	.	.	.	2.r	.	2.B/	2.g\
.	.	.	.	.	16cc\L	.	.	.	.	.	.	.	.	.	.	.
.	.	.	.	.	16b\JJ	.	.	.	.	.	.	.	.	.	.	.
.	.	.	.	.	4g/	.	.	.	.	.	.	.	.	.	.	.
.	.	.	.	.	8g/L	.	.	.	.	.	.	.	.	.	.	.
.	.	.	.	.	8d/J	.	.	.	.	.	.	.	.	.	.	.
=42	=42	=42	=42	=42	=42	=42	=42-	=42	=42-	=42	=42-	=42	=42	=42	=42	=42
!LO:TX:a:t=Solo	!LO:DY:a:t=p.:rj	!	!	!LO:DY:a:t=p&colon;	!	!LO:DY:a:rj:t=p.	!	!	!	!	!	!	!LO:TX:a:t=Solo	!	!	!
[<2.GG/)	p	.	2.B/ 2.d/	p	8g/L	p	.	.	.	.	.	.	8g\L	Me-	0.r	0.r
.	.	.	.	.	8a/J	.	.	.	.	.	.	.	8a\J	.	.	.
.	.	.	.	.	4b\	.	.	.	.	.	.	.	4b\	-mo-	.	.
.	.	.	.	.	8b\L	.	.	.	.	.	.	.	8b\	-ri-	.	.
.	.	.	.	.	8cc\J	.	.	.	.	.	.	.	8b\	-am	.	.
=43	=43	=43	=43	=43	=43	=43	=43-	=43	=43-	=43	=43-	=43	=43	=43	=43-	=43-
2.GG/_<	.	.	2.B/ 2.d/	.	8dd\L	.	0.r	.	0.r	.	0.r	.	8dd\	fe-	.	.
.	.	.	.	.	8gg\J	.	.	.	.	.	.	.	8gg\	-cit	.	.
!	!	!	!	!	!	!	!	!	!	!	!	!	!LO:LB:g=original	!	!	!
.	.	.	.	.	8b\L	.	.	.	.	.	.	.	8b\L	mi-	.	.
.	.	.	.	.	8a\	.	.	.	.	.	.	.	8a\J	.	.	.
.	.	.	.	.	8b\	.	.	.	.	.	.	.	8b\L	-ra-	.	.
.	.	.	.	.	8cc\J	.	.	.	.	.	.	.	8cc\J	.	.	.
=44	=44	=44	=44	=44	=44	=44	=44-	=44	=44-	=44	=44-	=44	=44	=44	=44-	=44-
2.GG/]	.	.	2.B/ 2.d/	.	8dd\L	.	.	.	.	.	.	.	8dd\	-bi-	.	.
.	.	.	.	.	16ee\L	.	.	.	.	.	.	.	16ee\LL	-li-	.	.
.	.	.	.	.	16dd\JJ	.	.	.	.	.	.	.	16dd\JJ	.	.	.
.	.	.	.	.	4b/	.	.	.	.	.	.	.	4b\	-um	.	.
.	.	.	.	.	8b/L	.	.	.	.	.	.	.	8b\	ſu-	.	.
.	.	.	.	.	8g/J	.	.	.	.	.	.	.	8g\	.	.	.
=45	=45	=45	=45	=45	=45	=45	=45-	=45	=45-	=45	=45-	=45	=45	=45	=45-	=45-
2.GG/	.	.	2.B/ 2.d/	.	8a/L	.	.	.	.	.	.	.	8a\L	-o-	.	.
.	.	.	.	.	8b/J	.	.	.	.	.	.	.	8b\J	.	.	.
.	.	.	.	.	4g/	.	.	.	.	.	.	.	4g\	-rum	.	.
!	!	!	!	!	!LO:LB:g=original	!	!	!	!	!	!	!	!	!	!	!
.	.	.	.	.	8b\L	.	.	.	.	.	.	.	8b\L	mi-	.	.
.	.	.	.	.	8dd\J	.	.	.	.	.	.	.	8dd\J	.	.	.
=46	=46	=46	=46	=46	=46	=46	=46-	=46	=46-	=46	=46-	=46	=46	=46	=46-	=46-
4GG/	.	.	4d/	.	8ccL\	.	.	.	.	.	.	.	8cc\L	-ſe-	0.r	0.r
.	.	.	.	.	8b\	.	.	.	.	.	.	.	8b\J	.	.	.
4G\	.	.	4g/	.	8b\	.	.	.	.	.	.	.	8b\L	-ri-	.	.
.	.	.	.	.	8dd\	.	.	.	.	.	.	.	8dd\J	.	.	.
4G\	.	#4r 2	4a/	.	8cc#\	.	.	.	.	.	.	.	8cc#X\L	-cors	.	.
.	.	.	.	.	8eeJ\	.	.	.	.	.	.	.	8ee\J	.	.	.
=47	=47	=47	=47	=47	=47	=47	=47-	=47	=47-	=47	=47-	=47	=47	=47	=47-	=47-
4F#\	.	6: x	4a/	.	4dd\	.	0.r	.	0.r	.	0.r	.	4dd\	et	.	.
!	!	!	!	!	!	!	!	!	!	!	!	!	!LO:LB:g=original	!	!	!
4F#\	.	.	4a/	.	8ddL\	.	.	.	.	.	.	.	8dd\L	mi-	.	.
.	.	.	.	.	8ff#\	.	.	.	.	.	.	.	8ff#\J	.	.	.
4F#\	.	.	4d/	.	8dd\	.	.	.	.	.	.	.	8dd\L	-se-	.	.
.	.	.	.	.	8aJ\	.	.	.	.	.	.	.	8a\J	.	.	.
=48	=48	=48	=48	=48	=48	=48	=48-	=48	=48-	=48	=48-	=48	=48	=48	=48-	=48-
4G\	.	7: x	4d/	.	4b\	.	.	.	.	.	.	.	4b\	-ra-	.	.
4G\	.	.	4a/	.	8bL\	.	.	.	.	.	.	.	8b\L	.	.	.
.	.	.	.	.	8dd\	.	.	.	.	.	.	.	8dd\J	.	.	.
4G\	.	#4r 2	4a/	.	8cc#\	.	.	.	.	.	.	.	8cc#X\L	-tor	.	.
.	.	.	.	.	8eeJ\	.	.	.	.	.	.	.	8ee\J	.	.	.
=49	=49	=49	=49	=49	=49	=49	=49-	=49	=49-	=49	=49-	=49	=49	=49	=49-	=49-
4F#\	.	6 x	4a/	.	8ddL\	.	.	.	.	.	.	.	8dd\L	Do-	.	.
.	.	.	.	.	8ff#\	.	.	.	.	.	.	.	8ff#\J	.	.	.
4E\	.	7 x	4g/	.	8dd\	.	.	.	.	.	.	.	8dd\L	-mi-	.	.
.	.	.	.	.	8cc#\	.	.	.	.	.	.	.	8cc#X\J	.	.	.
4D\	.	6 x	4f#/	.	4dd\	.	.	.	.	.	.	.	4dd\	-nus	.	.
!LO:LB:g=original	!	!	!	!	!	!	!	!	!	!	!	!	!	!	!	!
=50	=50	=50	=50	=50	=50	=50	=50-	=50	=50-	=50	=50-	=50	=50	=50	=50-	=50-
4C#X\	.	6 5	4a/	.	8eeL\	.	.	.	.	.	.	.	8ee\L	es-	0.r	0.r
.	.	.	.	.	8gg\	.	.	.	.	.	.	.	8gg\	.	.	.
4D\	.	.	4a/	.	8gg\	.	.	.	.	.	.	.	8gg\	.	.	.
.	.	.	.	.	8ff#\	.	.	.	.	.	.	.	8ff#\J	.	.	.
4F#\	.	6 x	4a/	.	8ee\	.	.	.	.	.	.	.	8ee\L	-cam	.	.
.	.	.	.	.	8dd\J	.	.	.	.	.	.	.	8dd\J	.	.	.
=51	=51	=51	=51	=51	=51	=51	=51-	=51	=51-	=51	=51-	=51	=51	=51	=51-	=51-
4A\	.	# x	4a/	.	4cc#\	.	1.r	.	0.r	.	0.r	.	4cc#X\	de-	.	.
4G\	.	.	4a/	.	8cc#\L	.	.	.	.	.	.	.	8cc#\L	-dit	.	.
.	.	.	.	.	8a\	.	.	.	.	.	.	.	8a\J	.	.	.
4F#\	.	6 x	4a/	.	8dd\	.	.	.	.	.	.	.	8dd\L	ti-	.	.
.	.	.	.	.	8ff#\J	.	.	.	.	.	.	.	8ff#\J	.	.	.
!	!	!	!	!	!	!	!	!	!	!	!	!	!LO:LB:g=original	!	!	!
=52	=52	=52	=52	=52	=52	=52	=52-	=52	=52-	=52	=52-	=52	=52	=52	=52-	=52-
4G\	.	6 x	8b/L	.	8gg\L	.	.	.	.	.	.	.	4ee\	-men-	.	.
.	.	.	8g/J	.	8ee\J	.	.	.	.	.	.	.	.	.	.	.
4A\	.	x 4	4f#/	.	4dd\	.	.	.	.	.	.	.	4dd\	-ti-	.	.
4AA/	.	# x	4e/	.	4cc#\	.	.	.	.	.	.	.	4cc#X\	-bus-	.	.
!	!	!	!LO:LB:g=original	!	!	!	!	!	!	!	!	!	!	!	!	!
=53	=53	=53	=53	=53	=53	=53	=53	=53	=53-	=53	=53-	=53	=53	=53	=53-	=53-
4D\	.	.	4f#/	.	4dd\	.	4r	.	.	.	.	.	4dd\	-se	.	.
!	!	!	!	!	!LO:LB:g=original	!	!	!	!	!	!	!	!	!	!	!
4D\	.	.	4a/	.	8dd\L	.	8D\L	me-	.	.	.	.	4r	.	.	.
.	.	.	.	.	8cc#\	.	8E\J	.	.	.	.	.	.	.	.	.
4D\	.	.	4a/	.	8dd\	.	8F#\L	-mor	.	.	.	.	4r	.	.	.
.	.	.	.	.	8ee\J	.	8G\J	.	.	.	.	.	.	.	.	.
=54	=54	=54	=54	=54	=54	=54	=54	=54	=54-	=54	=54-	=54	=54	=54	=54-	=54-
4D\	.	.	4a/	.	4ff#\	.	4A\	e-	.	.	.	.	0.r	.	0.r	0.r
4D\	.	.	4b/	.	4ff#\	.	8F#\L	-rit	.	.	.	.	.	.	.	.
.	.	.	.	.	.	.	8D\J	.	.	.	.	.	.	.	.	.
4D\	.	6 4	4b/	.	4gg\	.	8G\L	in	.	.	.	.	.	.	.	.
.	.	.	.	.	.	.	8B\J	.	.	.	.	.	.	.	.	.
=55	=55	=55	=55	=55	=55	=55	=55	=55	=55-	=55	=55-	=55	=55-	=55	=55-	=55-
4D\	.	x 7	4a/	.	4ff#\	.	8A\	Sae-	0.r	.	0.r	.	.	.	.	.
.	.	.	.	.	.	.	8F#\	-cu-	.	.	.	.	.	.	.	.
4F#\	.	.	4a/	.	4ff#\	.	4D\	-lum	.	.	.	.	.	.	.	.
4D\	.	.	4a/	.	4ff#\	.	8E\	te-	.	.	.	.	.	.	.	.
.	.	.	.	.	.	.	8F#\	-sta-	.	.	.	.	.	.	.	.
!	!	!	!	!	!	!	!LO:LB:g=original	!	!	!	!	!	!	!	!	!
=56	=56	=56	=56	=56	=56	=56	=56	=56	=56-	=56	=56-	=56	=56-	=56	=56-	=56-
4C#X/	.	6: 5:	4a/	.	4ee\	.	8G\	-men-	.	.	.	.	.	.	.	.
.	.	.	.	.	.	.	16E\LL	-ti	.	.	.	.	.	.	.	.
.	.	.	.	.	.	.	16F#\JJ	.	.	.	.	.	.	.	.	.
4C#/	.	.	4a/	.	4ee\	.	8A\L	ſu-	.	.	.	.	.	.	.	.
.	.	.	.	.	.	.	8B\J	.	.	.	.	.	.	.	.	.
4C#/	.	.	4a/	.	4ee\	.	8A\L	.	.	.	.	.	.	.	.	.
.	.	.	.	.	.	.	8G\J	.	.	.	.	.	.	.	.	.
=57	=57	=57	=57	=57	=57	=57	=57	=57	=57-	=57	=57-	=57	=57-	=57	=57-	=57-
4D\	.	.	4a/	.	4ff#\	.	8F#\	-i	.	.	.	.	.	.	.	.
.	.	.	.	.	.	.	8A\	Vir-	.	.	.	.	.	.	.	.
4D\	.	.	4a/	.	4ff#\	.	8A\L	-tu-	.	.	.	.	.	.	.	.
.	.	.	.	.	.	.	8B\J	.	.	.	.	.	.	.	.	.
4r	.	.	4r	.	4r	.	8c#X\L	-tem	.	.	.	.	.	.	.	.
.	.	.	.	.	.	.	8d\J	.	.	.	.	.	.	.	.	.
!LO:LB:g=original	!	!	!	!	!	!	!	!	!	!	!	!	!	!	!	!
=58	=58	=58	=58	=58	=58	=58	=58	=58	=58-	=58	=58-	=58	=58-	=58	=58-	=58-
4AA/	.	x #	8a/	.	2gg	.	8c#X\L	o-	.	.	.	.	0.r	.	0.r	0.r
.	.	.	4a/	.	.	.	8e\J	.	.	.	.	.	.	.	.	.
4C#X/	.	6 5	.	.	.	.	8c#\L	-pe-	.	.	.	.	.	.	.	.
.	.	.	4a/	.	.	.	8A\J	.	.	.	.	.	.	.	.	.
4D\	.	.	.	.	8ff#\L	.	4d\	-rum	.	.	.	.	.	.	.	.
.	.	.	8a/	.	8aa\J	.	.	.	.	.	.	.	.	.	.	.
=59	=59	=59	=59	=59	=59	=59	=59	=59	=59-	=59	=59-	=59	=59-	=59	=59-	=59-
4AA/	.	x #	8a/	.	2gg\	.	8c#X\L	ſu-	0.r	.	0.r	.	.	.	.	.
.	.	.	4a/	.	.	.	8e\J	.	.	.	.	.	.	.	.	.
4D\	.	6 x	.	.	.	.	8c#\L	-o-	.	.	.	.	.	.	.	.
.	.	.	4a/	.	.	.	8A\J	.	.	.	.	.	.	.	.	.
4F#\	.	.	.	.	8ff#\L	.	4d\	-rum	.	.	.	.	.	.	.	.
.	.	.	8a/	.	8dd\J	.	.	.	.	.	.	.	.	.	.	.
=60	=60	=60	=60	=60	=60	=60	=60	=60	=60-	=60	=60-	=60	=60-	=60	=60-	=60-
4AA/	.	x #:	4a/	.	4cc#\	.	8c#X\L	an-	.	.	.	.	.	.	.	.
.	.	.	.	.	.	.	8e\J	.	.	.	.	.	.	.	.	.
4A\	.	.	4a/	.	4cc#\	.	8c#\L	-nun-	.	.	.	.	.	.	.	.
.	.	.	.	.	.	.	8A\J	.	.	.	.	.	.	.	.	.
4G\	.	.	4a/	.	4cc#\	.	8B\L	-ti-	.	.	.	.	.	.	.	.
.	.	.	.	.	.	.	8c#\J	.	.	.	.	.	.	.	.	.
!	!	!	!	!	!	!	!LO:LB:g=original	!	!	!	!	!	!	!	!	!
=61	=61	=61	=61	=61	=61	=61	=61	=61	=61-	=61	=61-	=61	=61-	=61	=61-	=61-
4F#\	.	6: x	4f#/	.	4dd\	.	8d\L	-a-	.	.	.	.	.	.	.	.
.	.	.	.	.	.	.	8A\J	.	.	.	.	.	.	.	.	.
4F#\	.	.	4f#/	.	4dd\	.	4A\	-bit	.	.	.	.	.	.	.	.
4F#\	.	.	4f#/	.	4dd\	.	8F#\L	po-	.	.	.	.	.	.	.	.
.	.	.	.	.	.	.	8G\J	.	.	.	.	.	.	.	.	.
=62	=62	=62	=62	=62	=62	=62	=62	=62	=62-	=62	=62-	=62	=62-	=62	=62-	=62-
4G\	.	6 x	4g/	.	4ee\	.	8B\	-pu-	.	.	.	.	0.r	.	2.r	2.r
.	.	.	.	.	.	.	8G\	-lu	.	.	.	.	.	.	.	.
4A\	.	x 4	4f#/	.	4dd\	.	4A\	ſu-	.	.	.	.	.	.	.	.
4AA/	.	x #	4e/	.	4cc#\	.	4AA/	.	.	.	.	.	.	.	.	.
!	!	!	!	!	!LO:LB:g=original	!	!	!	!	!	!	!	!	!	!	!
=63	=63	=63	=63	=63	=63	=63	=63	=63	=63-	=63	=63-	=63	=63-	=63	=63	=63
!	!LO:DY:a:t=for	!	!	!	!	!LO:DY:a:t=for.	!	!	!	!	!	!	!	!	!	!
[<2.D\	f	.	8d/L	.	8dd\L	f	4D\	-o	0.r	.	0.r	.	.	.	2.d/	2.a\
.	.	.	16e/L	.	16ee\L	.	.	.	.	.	.	.	.	.	.	.
.	.	.	16f#/JJ	.	16ff#JJ\	.	.	.	.	.	.	.	.	.	.	.
.	.	.	4d/	.	4dd\	.	4r	.	.	.	.	.	.	.	.	.
.	.	.	8f#/L	.	8ff#\L	.	4r	.	.	.	.	.	.	.	.	.
.	.	.	8g/J	.	8gg\J	.	.	.	.	.	.	.	.	.	.	.
!	!	!	!LO:LB:g=original	!	!	!	!	!	!	!	!	!	!	!	!	!
=64	=64	=64	=64	=64	=64	=64	=64	=64	=64-	=64	=64-	=64	=64-	=64	=64	=64
2.D\_<	.	.	8a/L	.	8aa\L	.	1.r	.	.	.	.	.	.	.	2.d/	2.a\
.	.	.	8f#/	.	8ff#\	.	.	.	.	.	.	.	.	.	.	.
.	.	.	8d/	.	8dd\	.	.	.	.	.	.	.	.	.	.	.
.	.	.	8f#/J	.	8ff#\J	.	.	.	.	.	.	.	.	.	.	.
.	.	.	16d/LL	.	16dd\LL	.	.	.	.	.	.	.	.	.	.	.
.	.	.	16c#X/	.	16cc#\	.	.	.	.	.	.	.	.	.	.	.
.	.	.	16B/	.	16b\	.	.	.	.	.	.	.	.	.	.	.
.	.	.	16A/JJ	.	16aJJ\	.	.	.	.	.	.	.	.	.	.	.
=65	=65	=65	=65	=65	=65	=65	=65-	=65	=65-	=65	=65-	=65	=65-	=65	=65	=65
2.D\_<	.	.	8d/L	.	8ddL\	.	.	.	.	.	.	.	.	.	2.d/	2.a\
.	.	.	16e/L	.	16ee\L	.	.	.	.	.	.	.	.	.	.	.
.	.	.	16f#/JJ	.	16ff#JJ\	.	.	.	.	.	.	.	.	.	.	.
.	.	.	4d/	.	4dd\	.	.	.	.	.	.	.	.	.	.	.
.	.	.	8f#/L	.	8ff#\L	.	.	.	.	.	.	.	.	.	.	.
.	.	.	8g/J	.	8gg\J	.	.	.	.	.	.	.	.	.	.	.
=66	=66	=66	=66	=66	=66	=66	=66-	=66	=66-	=66	=66-	=66	=66	=66	=66	=66
2.D\]	.	.	8a/L	.	8aaL\	.	2.r	.	.	.	.	.	2.r	.	2.d/	2.a\
.	.	.	8f#/	.	8ff#\	.	.	.	.	.	.	.	.	.	.	.
.	.	.	8d/	.	8dd\	.	.	.	.	.	.	.	.	.	.	.
.	.	.	8f#/J	.	8ff#J\	.	.	.	.	.	.	.	.	.	.	.
.	.	.	4A/	.	4a/	.	.	.	.	.	.	.	.	.	.	.
!	!	!	!	!	!	!	!	!	!	!	!	!	!	!	!	!LO:LB:g=original
=67	=67	=67	=67	=67	=67	=67	=67	=67	=67	=67	=67	=67	=67	=67	=67	=67
!LO:TX:a:t=Tutti:rj	!	!	!	!	!	!	!	!	!	!	!	!	!	!	!	!
4D\	.	.	4f#/ 4a/	.	4dd\	.	2d\	Ut	2d\	Ut	2a\	Ut	2ff#\	Ut	2.d/	2.a\
4d\	.	7: x	4f#/ 4a/	.	8ee\L	.	.	.	.	.	.	.	.	.	.	.
.	.	.	.	.	8dd\	.	.	.	.	.	.	.	.	.	.	.
4d\	.	.	4f#/ 4a/	.	8aa\	.	4d\	det	4d\	det	4a\	det	4ff#\	det	.	.
.	.	.	.	.	8ff#J	.	.	.	.	.	.	.	.	.	.	.
!LO:LB:g=original	!	!	!	!	!	!	!	!	!	!	!	!	!	!	!	!
=68	=68	=68	=68	=68	=68	=68	=68	=68	=68	=68	=68	=68	=68	=68	=68	=68
4cn\	.	.	4f#/ 4a/	.	16dd\LL	.	4cn\	il-	4d\	il-	4a\	il-	4ff#\	il-	2.d/	2.a\
.	.	.	.	.	16cc\	.	.	.	.	.	.	.	.	.	.	.
.	.	.	.	.	16dd\	.	.	.	.	.	.	.	.	.	.	.
.	.	.	.	.	16ee\JJ	.	.	.	.	.	.	.	.	.	.	.
4c\	.	.	4f#/ 4a/	.	8ff#L\	.	4c\	-lis	4d\	-lis	4a\	-lis	4ff#\	-lis	.	.
.	.	.	.	.	8aa\	.	.	.	.	.	.	.	.	.	.	.
4c\	.	.	4f#/ 4a/	.	8dd\	.	4c\	hae-	4d\	hae-	4a\	hae-	4ff#\	hae-	.	.
.	.	.	.	.	8ff#J\	.	.	.	.	.	.	.	.	.	.	.
!	!	!	!	!	!	!	!	!	!	!	!	!	!	!	!LO:LB:g=original	!
=69	=69	=69	=69	=69	=69	=69	=69	=69	=69	=69	=69	=69	=69	=69	=69	=69
*	*	*	*	*	*	*	*	*	*	*	*	*	*	*	*2\right	*
4B\	.	6: x	4g/ 4b/	.	16gg\LL	.	8B\	-re-	8d\	-re-	8b\	-re-	8gg\	-re-	2.g\	2.b\
.	.	.	.	.	16ff#\	.	.	.	.	.	.	.	.	.	.	.
.	.	.	.	.	16gg\	.	8B\	-di-	8d\	-di-	8b\	-di-	8gg\	-di-	.	.
.	.	.	.	.	16aaJJ\	.	.	.	.	.	.	.	.	.	.	.
4G\	.	.	4g/ 4b/	.	8gg\L	.	4G\	-ta-	4d\	-ta-	4b\	-ta-	4gg\	-ta-	.	.
.	.	.	.	.	8bb\	.	.	.	.	.	.	.	.	.	.	.
4B\	.	.	4g/ 4b/	.	8dd\	.	4B\	-tem	4d\	-tem	4b\	-tem	4gg\	-tem	.	.
.	.	.	.	.	8ggJ\	.	.	.	.	.	.	.	.	.	.	.
!	!	!	!	!	!LO:LB:g=original	!	!	!	!	!	!	!	!	!	!	!
=70	=70	=70	=70	=70	=70	=70	=70	=70	=70	=70	=70	=70	=70	=70	=70	=70
4d\	.	x 4	4g/ 4b/	.	8ggL\	.	8d\	gen-	8d\	gen-	8b\	gen-	8gg\	gen-	4g\	4b\
.	.	.	.	.	16ff#\L	.	8d\	-ti-	8d\	-ti-	8b\	-ti-	8gg\	-ti-	.	.
.	.	.	.	.	16gg\JJ	.	.	.	.	.	.	.	.	.	.	.
!	!	!	!	!	!	!	!LO:LB:g=original	!	!	!	!	!	!LO:LB:g=original	!	!	!
4D\	.	x 3	4f#/ 4a/	.	8ff#\L	.	4D\	-um	4d\	-um	4a\	-um	4ff#\	-um	4d/	4a\
.	.	.	.	.	8aa\J	.	.	.	.	.	.	.	.	.	.	.
4r	.	.	16g/LL	.	16gg\LL	.	4r	.	4r	.	4r	.	4r	.	4r	4r
.	.	.	16f#/	.	16ff#\	.	.	.	.	.	.	.	.	.	.	.
.	.	.	16e/	.	16ee\	.	.	.	.	.	.	.	.	.	.	.
.	.	.	16d/JJ	.	16dd\JJ	.	.	.	.	.	.	.	.	.	.	.
=71	=71	=71	=71	=71	=71	=71	=71	=71	=71	=71	=71	=71	=71	=71	=71	=71
4G\	.	.	16g/LL	.	16ggLL\	.	4G\	o-	4d\	o-	4b\	o-	4gg\	o-	2.g\	2.b\
.	.	.	16f#/	.	16ff#\	.	.	.	.	.	.	.	.	.	.	.
.	.	.	16g/	.	16gg\	.	.	.	.	.	.	.	.	.	.	.
.	.	.	16a/JJ	.	16aa\JJ	.	.	.	.	.	.	.	.	.	.	.
4B\	.	.	8g/L	.	8gg\L	.	4B\	-pe-	4d\	-pe-	4b\	-pe-	4gg\	-pe-	.	.
.	.	.	8d/	.	8dd\	.	.	.	.	.	.	.	.	.	.	.
4G\	.	.	8b/	.	8bb\	.	4G\	-ra	4d\	-ra	4b\	-ra	4gg\	-ra	.	.
.	.	.	8g/J	.	8gg\J	.	.	.	.	.	.	.	.	.	.	.
!	!	!	!LO:LB:g=original	!	!	!	!	!	!	!	!	!	!	!	!	!
=72	=72	=72	=72	=72	=72	=72	=72	=72	=72	=72	=72	=72	=72	=72	=72	=72
4D\	.	7: x	8f#/L	.	8ff#\L	.	4D\	ma-	4d\	ma-	4a\	ma-	4ff#\	ma-	2.d/	2.a\
.	.	.	8g/	.	8gg\	.	.	.	.	.	.	.	.	.	.	.
4d\	.	.	8a/	.	8aa\	.	4d\	-nu-	4d\	-nu-	4a\	-nu-	4ff#\	-nu-	.	.
.	.	.	8f#/J	.	8ff#\J	.	.	.	.	.	.	.	.	.	.	.
4c\	.	.	8d/L	.	8dd\L	.	4c\	-um	4d\	-um	4a\	-um	4ff#\	-um	.	.
.	.	.	16e/L	.	16ee\L	.	.	.	.	.	.	.	.	.	.	.
.	.	.	16f#/JJ	.	16ff#\JJ	.	.	.	.	.	.	.	.	.	.	.
!	!	!	!	!	!	!	!	!	!	!	!LO:LB:g=original	!	!	!	!	!
=73	=73	=73	=73	=73	=73	=73	=73	=73	=73	=73	=73	=73	=73	=73	=73	=73
4B\	.	6: x	16g/LL	.	16gg\LL	.	2B\	e-	2d\	e-	2b\	e-	2gg\	e-	2.g\	2.b\
.	.	.	16f#/	.	16ff#\	.	.	.	.	.	.	.	.	.	.	.
.	.	.	16g/	.	16gg\	.	.	.	.	.	.	.	.	.	.	.
.	.	.	16a/JJ	.	16aa\JJ	.	.	.	.	.	.	.	.	.	.	.
4B\	.	.	8g/L	.	8gg\L	.	.	.	.	.	.	.	.	.	.	.
.	.	.	8d/	.	8dd\	.	.	.	.	.	.	.	.	.	.	.
4G\	.	.	8b/	.	8bb\	.	4G\	-ius	4d\	-ius	4b\	-ius	4gg\	-ius	.	.
.	.	.	8g/J	.	8gg\J	.	.	.	.	.	.	.	.	.	.	.
!	!	!	!	!	!	!	!	!	!LO:LB:g=original	!	!	!	!	!	!	!
=74	=74	=74	=74	=74	=74	=74	=74	=74	=74	=74	=74	=74	=74	=74	=74	=74
4D\	.	7: x	8f#/L	.	8ff#\L	.	4D\	ve-	4d\	ve-	4a\	Ve-	4ff#\	Ve-	2.d/	2.a\
.	.	.	8g/	.	8gg\	.	.	.	.	.	.	.	.	.	.	.
4d\	.	.	8a/	.	8aa\	.	4d\	-ri-	4d\	-ri-	4a\	-ri-	4ff#\	-ri-	.	.
.	.	.	8f#/J	.	8ff#\J	.	.	.	.	.	.	.	.	.	.	.
4c\	.	.	8d/L	.	8dd\L	.	4c\	-tas	4d\	-tas	4a\	-tas	4ff#\	-tas	.	.
.	.	.	16e/L	.	16ee\L	.	.	.	.	.	.	.	.	.	.	.
.	.	.	16f#/JJ	.	16ff#\JJ	.	.	.	.	.	.	.	.	.	.	.
=75	=75	=75	=75	=75	=75	=75	=75	=75	=75	=75	=75	=75	=75	=75	=75	=75
8B\L	.	6 x	8g/L	.	8gg\L	.	8B\	et	8d\	et	8b\	et	8gg\	et	8g\L	8b\L
8c\J	.	6 x	8a/	.	8aa\	.	8c\	iu-	8e\	iu-	8cc\	Ju-	8aa\	Ju-	8a\J	8cc\J
4d\	.	x 4	8b/	.	8gg\	.	4d\	-di-	4d\	-di-	4b\	-di-	4gg\	-di-	4f#\	4b\
.	.	.	8g/	.	8b\	.	.	.	.	.	.	.	.	.	.	.
4D\	.	x 3	8f#/	.	8a\	.	4D\	-ci-	4d\	-ci-	4a\	-ci-	4ff#\	-ci-	4d/	4a\
.	.	.	8a/J	.	8ff#\J	.	.	.	.	.	.	.	.	.	.	.
!	!	!	!	!	!LO:LB:g=original	!	!	!	!	!	!	!	!LO:LB:g=original	!	!	!
=76	=76	=76	=76	=76	=76	=76	=76	=76	=76	=76	=76	=76	=76	=76	=76	=76
!LO:TX:a:t=Solo	!	!	!	!	!	!	!	!	!	!	!	!	!	!	!	!
4G\	.	.	8g/L	.	8gg\L	.	4G\	-um	4d\	-um	4b\	-um	4gg\	-um	4B/	4g\
.	.	.	8b/J	.	8bb\J	.	.	.	.	.	.	.	.	.	.	.
4BB/	.	6: x	8g/L	.	8gg\L	.	4r	.	4r	.	4r	.	4r	.	4r	4r
.	.	.	8f#/	.	8ff#\	.	.	.	.	.	.	.	.	.	.	.
4BB/	.	.	8e/	.	8ee\	.	4r	.	4r	.	4r	.	4r	.	4r	4r
.	.	.	8d/J	.	8dd\J	.	.	.	.	.	.	.	.	.	.	.
!LO:LB:g=original	!	!	!	!	!	!	!	!	!	!	!	!	!	!	!	!
=77	=77	=77	=77	=77	=77	=77	=77	=77	=77	=77	=77	=77	=77	=77	=77	=77
4C/	.	.	8e/L	.	8ee\L	.	0.r	.	0.r	.	1.r	.	0.r	.	4r	4r
.	.	.	8g/	.	8gg\	.	.	.	.	.	.	.	.	.	.	.
4C/	.	.	8f#/	.	8ff#\	.	.	.	.	.	.	.	.	.	4r	4r
.	.	.	8g/	.	8gg\	.	.	.	.	.	.	.	.	.	.	.
4BB/	.	.	8a/	.	8aa\	.	.	.	.	.	.	.	.	.	8r	8r
.	.	.	8g/J	.	8gg\J	.	.	.	.	.	.	.	.	.	8g\	8b\
!	!	!	!	!	!	!	!	!	!	!	!	!	!	!	!LO:LB:g=original	!LO:LB:g=original
=78	=78	=78	=78	=78	=78	=78	=78-	=78	=78-	=78	=78-	=78	=78-	=78	=78	=78
4C/	.	6 x	8e/L	.	8ee\L	.	.	.	.	.	.	.	.	.	4a\	4cc\
.	.	.	8a/J	.	16dd\L	.	.	.	.	.	.	.	.	.	.	.
.	.	.	.	.	16cc\JJ	.	.	.	.	.	.	.	.	.	.	.
4D/	.	x 4	4g/	.	4b\	.	.	.	.	.	.	.	.	.	4g\	4b\
4DD/	.	x 3	4f#/	.	4a\	.	.	.	.	.	.	.	.	.	4d/	4a\
!	!	!	!LO:LB:g=original	!	!	!	!	!	!	!	!	!	!	!	!	!
=79	=79	=79	=79	=79	=79	=79	=79-	=79	=79-	=79	=79-	=79	=79-	=79	=79	=79
4GG/	.	.	8g/L	.	8b\L	.	.	.	.	.	2.r	.	.	.	4B/	4g\
.	.	.	8b/J	.	8dd\J	.	.	.	.	.	.	.	.	.	.	.
4G\	.	.	4g/	.	4b\	.	.	.	.	.	.	.	.	.	4B/	4f#\
4r	.	.	4r	.	4r	.	.	.	.	.	.	.	.	.	4r	4r
=80	=80	=80	=80	=80	=80	=80	=80-	=80	=80-	=80	=80	=80	=80-	=80	=80	=80
!	!LO:DY:a:rj:t=p.	!	!	!LO:DY:a:t=pia	!	!LO:DY:a:t=p.	!	!	!	!	!LO:TX:a:t=Solo:rj	!	!	!	!	!
4G\	p	.	4B/ 4d/	p	8g/L	p	.	.	.	.	8g\L	Fi-	.	.	0.r	0.r
.	.	.	.	.	8b/J	.	.	.	.	.	8b\J	.	.	.	.	.
4GG/	.	.	4B/ 4d/	.	4dd\	.	.	.	.	.	4dd\	-de-	.	.	.	.
4BB/	.	6 x	4B/ 4d/	.	16cc/LL	.	.	.	.	.	16cc\LL	-li-	.	.	.	.
.	.	.	.	.	16b/	.	.	.	.	.	16b\JJ	.	.	.	.	.
.	.	.	.	.	16a/	.	.	.	.	.	16a\LL	-a	.	.	.	.
.	.	.	.	.	16g/JJ	.	.	.	.	.	16g\JJ	.	.	.	.	.
=81	=81	=81	=81	=81	=81	=81	=81-	=81	=81-	=81	=81	=81	=81-	=81	=81-	=81-
4D\	.	.	4A/ 4d/	.	4f#/	.	0.r	.	0.r	.	4f#\	o-	0.r	.	.	.
4DD/	.	.	4A/ 4d/	.	8f#L/	.	.	.	.	.	8f#\L	-mni-	.	.	.	.
.	.	.	.	.	8a/	.	.	.	.	.	8a\J	.	.	.	.	.
!	!	!	!	!	!	!	!	!	!	!	!LO:LB:g=original	!	!	!	!	!
4D\	.	.	4A/ 4d/	.	8d/	.	.	.	.	.	8d\L	-a	.	.	.	.
.	.	.	.	.	8f#/J	.	.	.	.	.	8f#\J	.	.	.	.	.
=82	=82	=82	=82	=82	=82	=82	=82-	=82	=82-	=82	=82	=82	=82-	=82	=82-	=82-
4G\	.	.	4B/ 4d	.	8g/L	.	.	.	.	.	8g\L	man-	.	.	.	.
.	.	.	.	.	8b/J	.	.	.	.	.	8b\J	.	.	.	.	.
4GG/	.	.	4B/ 4d	.	4dd\	.	.	.	.	.	4dd\	-da-	.	.	.	.
4BB/	.	6 x	4B/ 4d	.	16cc/LL	.	.	.	.	.	16cc\LL	.	.	.	.	.
.	.	.	.	.	16b/	.	.	.	.	.	16b\JJ	.	.	.	.	.
.	.	.	.	.	16a/	.	.	.	.	.	16a\LL	-ta	.	.	.	.
.	.	.	.	.	16gJJ/	.	.	.	.	.	16g\JJ	.	.	.	.	.
!	!	!	!	!	!LO:LB:g=original	!	!	!	!	!	!	!	!	!	!	!
=83	=83	=83	=83	=83	=83	=83	=83-	=83	=83-	=83	=83	=83	=83-	=83	=83-	=83-
4D/	.	7: x	4A/ 4d/	.	8f#/L	.	.	.	.	.	8f#\L	e-	.	.	.	.
.	.	.	.	.	8a	.	.	.	.	.	8a\	.	.	.	.	.
4C/	.	.	4A/ 4d/	.	8d	.	.	.	.	.	8d\	.	.	.	.	.
.	.	.	.	.	8f#J	.	.	.	.	.	8f#\J	.	.	.	.	.
4BB/	.	6 x	4A/ 4d/	.	4g	.	.	.	.	.	4g\	-ius	.	.	.	.
=84	=84	=84	=84	=84	=84	=84	=84-	=84	=84-	=84	=84	=84	=84-	=84	=84-	=84-
4BB/	.	6: x	4c/	.	8eL/	.	.	.	.	.	8e\L	Con-	.	.	0.r	0.r
.	.	.	.	.	16f#L/	.	.	.	.	.	16f#\L	.	.	.	.	.
.	.	.	.	.	16g/JJ	.	.	.	.	.	16g\JJ	.	.	.	.	.
4C/	.	.	4e/	.	8a/L	.	.	.	.	.	8a\L	.	.	.	.	.
.	.	.	.	.	8b/	.	.	.	.	.	8b\J	.	.	.	.	.
4C/	.	.	4e/	.	8cc/	.	.	.	.	.	8cc\L	-fir-	.	.	.	.
.	.	.	.	.	8a/J	.	.	.	.	.	8a\J	.	.	.	.	.
=85	=85	=85	=85	=85	=85	=85	=85-	=85	=85-	=85	=85	=85	=85-	=85	=85-	=85-
.	.	.	.	.	8qqg	.	.	.	.	.	.	.	.	.	.	.
4D/	.	7: x	4d/	.	4f#/	.	0.r	.	0.r	.	4f#\	-ma-	0.r	.	.	.
4C/	.	.	4d/	.	8f#/L	.	.	.	.	.	8f#\L	-ta	.	.	.	.
.	.	.	.	.	8d/	.	.	.	.	.	8d\J	.	.	.	.	.
4BB/	.	6 x	4d/	.	8g/	.	.	.	.	.	8g\L	in	.	.	.	.
.	.	.	.	.	8b/J	.	.	.	.	.	8b\J	.	.	.	.	.
!LO:LB:g=original	!	!	!	!	!	!	!	!	!	!	!	!	!	!	!	!
=86	=86	=86	=86	=86	=86	=86	=86-	=86	=86-	=86	=86	=86	=86-	=86	=86-	=86-
4C/	.	6 x	4e/	.	8a/L	.	.	.	.	.	8a\L	ſae-	.	.	.	.
.	.	.	.	.	8cc/	.	.	.	.	.	8cc\J	.	.	.	.	.
!	!	!	!	!	!	!	!	!	!	!	!LO:LB:g=original	!	!	!	!	!
4C/	.	.	4e/	.	8cc/	.	.	.	.	.	8cc\L	-cu-	.	.	.	.
.	.	.	.	.	8a/	.	.	.	.	.	8a\J	.	.	.	.	.
4C#X/	.	5 x	4e/	.	8b/	.	.	.	.	.	8b\L	-lum	.	.	.	.
.	.	.	.	.	8g/J	.	.	.	.	.	8g\J	.	.	.	.	.
=87	=87	=87	=87	=87	=87	=87	=87-	=87	=87-	=87	=87	=87	=87-	=87	=87-	=87-
4D\	.	x 4	4B/	.	8g/L	.	.	.	.	.	8g\	ſae-	.	.	.	.
.	.	.	.	.	16f#L/	.	.	.	.	.	8g\	-cu-	.	.	.	.
.	.	.	.	.	16gJJ/	.	.	.	.	.	.	.	.	.	.	.
4DD/	.	x 3	4A/	.	4f#	.	.	.	.	.	4f#\	-li	.	.	.	.
4r	.	.	4r	.	8d/L	.	.	.	.	.	8d\L	fac-	.	.	.	.
.	.	.	.	.	8f#J/	.	.	.	.	.	8f#\J	.	.	.	.	.
=88	=88	=88	=88	=88	=88	=88	=88-	=88	=88-	=88	=88	=88	=88-	=88	=88-	=88-
4F#\	.	6: 5:	4d/	.	4a/	.	.	.	.	.	4a\	.	.	.	0.r	0.r
4F#\	.	.	4d/	.	8a/L	.	.	.	.	.	8a\L	-ta	.	.	.	.
.	.	.	.	.	8g	.	.	.	.	.	8g\J	.	.	.	.	.
4F#\	.	.	4d/	.	8a	.	.	.	.	.	8a\L	in	.	.	.	.
.	.	.	.	.	8cc/J	.	.	.	.	.	8cc\J	.	.	.	.	.
!LO:LB:g=original	!	!	!	!	!	!	!	!	!	!	!	!	!	!	!	!
=89	=89	=89	=89	=89	=89	=89	=89-	=89	=89-	=89	=89	=89	=89-	=89	=89-	=89-
4G\	.	.	4d/	.	8b\L	.	1.r	.	1.r	.	8b\	ve-	1.r	.	.	.
.	.	.	.	.	16cc\L	.	.	.	.	.	16cc\LL	-ri-	.	.	.	.
.	.	.	.	.	16ddJJ\	.	.	.	.	.	16dd\JJ	.	.	.	.	.
4G\	.	.	4d/	.	8cc\L	.	.	.	.	.	8cc\L	-ta-	.	.	.	.
.	.	.	.	.	8b\J	.	.	.	.	.	8b\J	.	.	.	.	.
4B\	.	6 x	4d/	.	8a/L	.	.	.	.	.	8a\	te	.	.	.	.
.	.	.	.	.	8g/J	.	.	.	.	.	8g\	et	.	.	.	.
!	!	!	!	!	!LO:LB:g=original	!	!	!	!	!	!	!	!	!	!	!
=90	=90	=90	=90	=90	=90	=90	=90-	=90	=90-	=90	=90	=90	=90-	=90	=90-	=90-
4c\	.	6 x	4c/	.	8cc\L	.	.	.	.	.	8cc\	ae-	.	.	.	.
.	.	.	.	.	8a\J	.	.	.	.	.	8a\	-qui-	.	.	.	.
4d\	.	x 4	4B/	.	4g/	.	.	.	.	.	4g\	-ta-	.	.	.	.
4D\	.	x 7	4A/	.	4f#	.	.	.	.	.	4f#\	.	.	.	.	.
!	!	!	!LO:LB:g=original	!	!	!	!	!	!	!	!LO:LB:g=original	!	!	!	!	!
=91	=91	=91	=91	=91	=91	=91	=91-	=91	=91-	=91	=91	=91	=91-	=91	=91-	=91-
4G\	.	.	16B/LL	.	16g/LL	.	2.r	.	2.r	.	4g\	-te	2.r	.	.	.
.	.	.	16A/	.	16f#/	.	.	.	.	.	.	.	.	.	.	.
.	.	.	16B/	.	16g/	.	.	.	.	.	.	.	.	.	.	.
.	.	.	16c/JJ	.	16a/JJ	.	.	.	.	.	.	.	.	.	.	.
!!mixed beam:problem
!	!	!	!LO:TX:t=P:problem=mixed beam	!LO:DY:a:t=for	!	!LO:DY:a:t=for.	!	!	!	!	!	!	!	!	!	!
4r	.	.	8d/L	f	8b\L	f	.	.	.	.	4r	.	.	.	.	.
.	.	.	8b\	.	8dd\	.	.	.	.	.	.	.	.	.	.	.
4r	.	.	8cc\	.	8ee\	.	.	.	.	.	4r	.	.	.	.	.
.	.	.	8b\J	.	8ff#J\	.	.	.	.	.	.	.	.	.	.	.
=92	=92	=92	=92	=92	=92	=92	=92	=92	=92	=92	=92	=92	=92	=92	=92	=92
!LO:TX:a:t=Tutti	!	!	!	!	!	!	!	!	!	!	!	!	!	!	!	!
4G\	.	.	4b\	.	8gg\L	.	4G\	Re-	4G/	Re-	4b\	Re-	4dd\	Re-	4G/	4g\
.	.	.	.	.	8dd\	.	.	.	.	.	.	.	.	.	.	.
4G\	.	.	8b\L	.	8dd\	.	4G\	-dem-	4G/	-dem-	4b\	-dem-	4dd\	-dem-	4G/	4g\
.	.	.	8g\	.	8b\	.	.	.	.	.	.	.	.	.	.	.
4G\	.	6: 4:	8ee\	.	8gg\	.	4G\	-pti-	4G/	-pti-	4cc\	-pti-	4ee\	-pti-	4G/	4g\
.	.	.	8cc\J	.	8ee\J	.	.	.	.	.	.	.	.	.	.	.
!	!	!	!	!	!	!	!LO:LB:g=original	!	!	!	!	!	!	!	!	!
=93	=93	=93	=93	=93	=93	=93	=93	=93	=93	=93	=93	=93	=93	=93	=93	=93
4G\	.	.	8cc\L	.	8ee\L	.	4G\	-o-	4G/	-o-	4cc\	-o-	4ee\	-o-	4G/	4g\
.	.	.	16b\L	.	16dd\L	.	.	.	.	.	.	.	.	.	.	.
.	.	.	16cc\JJ	.	16ff#\JJ	.	.	.	.	.	.	.	.	.	.	.
4GG/	.	5 3	4b\	.	8dd\L	.	4G\	-nem	4G/	-nem	4b\	-nem	4dd\	-nem	4G/	4g\
.	.	.	.	.	8gg\J	.	.	.	.	.	.	.	.	.	.	.
4G\	.	.	4b\	.	16gg\LL	.	8G\	mi-	8d\	mi-	8b\	mi-	8dd\	mi-	4B/	4g\
.	.	.	.	.	16ff#\	.	.	.	.	.	.	.	.	.	.	.
.	.	.	.	.	16ee\	.	8G\	-sit	8d\	-sit	8b\	-ſit	8dd\	-sit	.	.
.	.	.	.	.	16dd\JJ	.	.	.	.	.	.	.	.	.	.	.
=94	=94	=94	=94	=94	=94	=94	=94	=94	=94	=94	=94	=94	=94	=94	=94	=94
4F#\	.	6: 5:	4a/	.	8dd\L	.	4F#\	po-	4d\	po-	4a\	po-	4dd\	po-	4d/	4a\
.	.	.	.	.	8cc\J	.	.	.	.	.	.	.	.	.	.	.
4F#\	.	.	4a/	.	8a\L	.	4F#\	-pu-	4d\	-pu-	4a\	-pu-	4cc\	-pu-	4d/	4a\
.	.	.	.	.	16b\L	.	.	.	.	.	.	.	.	.	.	.
.	.	.	.	.	16cc\JJ	.	.	.	.	.	.	.	.	.	.	.
4F#\	.	.	4a/	.	8dd\L	.	4F#\	-lo	4d\	-lo	4a\	-lo	4cc\	-lo	4d/	4a\
.	.	.	.	.	8cc\J	.	.	.	.	.	.	.	.	.	.	.
=95	=95	=95	=95	=95	=95	=95	=95	=95	=95	=95	=95	=95	=95	=95	=95	=95
4G\	.	x 4	8a/L	.	8cc\L	.	4G\	ſu-	4d\	ſu-	4a\	ſu-	4cc\	ſu-	4d/	4a\
.	.	.	16g/L	.	16b\L	.	.	.	.	.	.	.	.	.	.	.
.	.	.	16a/JJ	.	16cc\JJ	.	.	.	.	.	.	.	.	.	.	.
4GG/	.	x 3	8g/L	.	8b\L	.	4G\	-o	4d\	-o	4g\	-o	4b\	-o	4B/	4g\
.	.	.	8b/	.	8dd\	.	.	.	.	.	.	.	.	.	.	.
4r	.	.	8a/	.	8cc\	.	4r	.	4r	.	4r	.	4r	.	4r	4r
.	.	.	8g/J	.	8b\J	.	.	.	.	.	.	.	.	.	.	.
!	!	!	!	!	!	!	!	!	!LO:LB:g=original	!	!	!	!	!	!	!
=96	=96	=96	=96	=96	=96	=96	=96	=96	=96	=96	=96	=96	=96	=96	=96	=96
4F#\	.	6: 5:	4A/ 4d/	.	8a\L	.	2.F#\	man-	2.d\	man-	2.a\	man-	2.cc\	man-	2.d/	2.a\
.	.	.	.	.	8cc\J	.	.	.	.	.	.	.	.	.	.	.
!	!	!	!	!	!LO:LB:g=original	!	!	!	!	!	!	!	!	!	!	!
4F#\	.	.	4A/ 4d/	.	8cc\L	.	.	.	.	.	.	.	.	.	.	.
.	.	.	.	.	8a\	.	.	.	.	.	.	.	.	.	.	.
4F#\	.	.	4A/ 4d/	.	8cc\	.	.	.	.	.	.	.	.	.	.	.
.	.	.	.	.	8dd\J	.	.	.	.	.	.	.	.	.	.	.
!	!	!	!	!	!	!	!	!	!	!	!	!	!LO:LB:g=original	!	!	!
=97	=97	=97	=97	=97	=97	=97	=97	=97	=97	=97	=97	=97	=97	=97	=97	=97
4G\	.	.	4B/ 4d/	.	8b\L	.	4G\	-da-	2d\	-da-	2g\	-da-	2b\	-da-	2.B/	2.g\
.	.	.	.	.	16cc\L	.	.	.	.	.	.	.	.	.	.	.
.	.	.	.	.	16b\JJ	.	.	.	.	.	.	.	.	.	.	.
4B\	.	.	4B/ 4d/	.	8g/L	.	4B\	.	.	.	.	.	.	.	.	.
.	.	.	.	.	8a/	.	.	.	.	.	.	.	.	.	.	.
4G\	.	.	4B/ 4d/	.	8b/	.	4G\	-vit	4d\	-vit	4g\	-vit	4b\	-vit	.	.
.	.	.	.	.	8g/J	.	.	.	.	.	.	.	.	.	.	.
!	!	!	!	!	!	!	!	!	!	!	!	!	!	!	!LO:LB:g=original	!
=98	=98	=98	=98	=98	=98	=98	=98	=98	=98	=98	=98	=98	=98	=98	=98	=98
4F#\	.	6: 5:	4A/ 4d/	.	8a\L	.	2F#\	in	2d\	in	2a\	in	2cc\	in	2.d/	2.a\
.	.	.	.	.	8cc\	.	.	.	.	.	.	.	.	.	.	.
4F#\	.	.	4A/ 4d/	.	8cc\	.	.	.	.	.	.	.	.	.	.	.
.	.	.	.	.	8a\	.	.	.	.	.	.	.	.	.	.	.
4F#\	.	.	4A/ 4d/	.	8cc\	.	4F#\	ae-	4d\	ae-	4a\	ae-	4cc\	ae-	.	.
.	.	.	.	.	8dd\J	.	.	.	.	.	.	.	.	.	.	.
!	!	!	!	!	!	!	!	!	!	!	!LO:LB:g=original	!	!	!	!	!LO:LB:g=original
=99	=99	=99	=99	=99	=99	=99	=99	=99	=99	=99	=99	=99	=99	=99	=99	=99
4G\	.	.	4B/ 4d/	.	8b\L	.	(>4G\	-ter-	2d\	-ter-	2g\	-ter-	2b\	-ter-	2B/	2g\
.	.	.	.	.	16cc\L	.	.	.	.	.	.	.	.	.	.	.
.	.	.	.	.	16b\JJ	.	.	.	.	.	.	.	.	.	.	.
4B\	.	6 x	4B/ 4d/	.	8g/L	.	4B\)	.	.	.	.	.	.	.	.	.
.	.	.	.	.	8a/	.	.	.	.	.	.	.	.	.	.	.
4B\	.	.	4B/ 4d/	.	8b/	.	4B\	-num	4d\	-num	4g\	-num	4dd\	-num	4g\	4b\
.	.	.	.	.	8g/J	.	.	.	.	.	.	.	.	.	.	.
=100	=100	=100	=100	=100	=100	=100	=100	=100	=100	=100	=100	=100	=100	=100	=100	=100
4c\	.	6: x	4c/ 4e/	.	8a/L	.	2c\	tes-	2c\	teſ-	2a\	teſ-	2ee\	teſ-	2.a\	2.cc\
.	.	.	.	.	8cc/	.	.	.	.	.	.	.	.	.	.	.
4c\	.	.	4c/ 4e/	.	8cc/	.	.	.	.	.	.	.	.	.	.	.
.	.	.	.	.	8a/	.	.	.	.	.	.	.	.	.	.	.
4c\	.	.	4c/ 4e/	.	8e/	.	4c\	-ta-	4c\	-ta-	4a\	-ta-	4ee\	-ta-	.	.
.	.	.	.	.	8a/J	.	.	.	.	.	.	.	.	.	.	.
!	!	!	!	!	!	!	!LO:LB:g=original	!	!	!	!	!	!	!	!	!
=101	=101	=101	=101	=101	=101	=101	=101	=101	=101	=101	=101	=101	=101	=101	=101	=101
4B\	.	6: x	4B/ 4d/	.	16g/LL	.	2B\	-men-	2d\	-men-	2g\	-men-	2dd\	-men-	2.g\	2.b\
.	.	.	.	.	16f#/	.	.	.	.	.	.	.	.	.	.	.
.	.	.	.	.	16e/	.	.	.	.	.	.	.	.	.	.	.
.	.	.	.	.	16d/JJ	.	.	.	.	.	.	.	.	.	.	.
4B\	.	.	4B/ 4d/	.	8g\L	.	.	.	.	.	.	.	.	.	.	.
.	.	.	.	.	8b\	.	.	.	.	.	.	.	.	.	.	.
4B\	.	.	4b\	.	8dd\	.	4B\	-tum	4d\	-tu(m)	4g\	-tum	4dd\	-tum	.	.
.	.	.	.	.	8gg\J	.	.	.	.	.	.	.	.	.	.	.
!	!	!	!LO:LB:g=original	!	!	!	!	!	!	!	!	!	!	!	!	!
=102	=102	=102	=102	=102	=102	=102	=102	=102	=102	=102	=102	=102	=102	=102	=102	=102
4c\	.	6 x	8cc\L	.	8ee\L	.	4c\	ſu-	4e\	ſu-	4a\	ſu-	4cc\	ſu-	4a\	4cc\
.	.	.	8a\J	.	16dd\L	.	.	.	.	.	.	.	.	.	.	.
.	.	.	.	.	16\ccJJ	.	.	.	.	.	.	.	.	.	.	.
4d\	.	x 4	4g/	.	4b\	.	4d\	.	2d\	.	4g\	.	4b\	.	4g\	4b\
4D\	.	x 3	4f#/	.	4a\	.	4D\	.	.	.	4f#\	.	4a\	.	4d/	4a\
!	!	!	!	!	!LO:LB:g=original	!	!	!	!	!	!	!	!	!	!	!
=103	=103	=103	=103	=103	=103	=103	=103	=103	=103	=103	=103	=103	=103	=103	=103	=103
[<2.GG/	.	.	2.B/ 2.d/	.	4b\	.	4G\	-um	4d\	-um	4g\	-um	4b\	-um	2.B/	2.g\
.	.	.	.	.	8dd\L	.	4r	.	4r	.	4r	.	4r	.	.	.
.	.	.	.	.	8b\	.	.	.	.	.	.	.	.	.	.	.
.	.	.	.	.	8dd\	.	4r	.	4r	.	4r	.	4r	.	.	.
.	.	.	.	.	8ee\J	.	.	.	.	.	.	.	.	.	.	.
!LO:LB:g=original	!	!	!	!	!	!	!	!	!	!	!	!	!	!	!	!
=104	=104	=104	=104	=104	=104	=104	=104	=104	=104	=104	=104	=104	=104	=104	=104	=104
2.GG/_<	.	.	2.B/ 2.d/	.	8dd\L	.	0.r	.	0.r	.	0.r	.	1.r	.	2.B/	2.g\
.	.	.	.	.	8cc\	.	.	.	.	.	.	.	.	.	.	.
.	.	.	.	.	8dd\	.	.	.	.	.	.	.	.	.	.	.
.	.	.	.	.	8b\J	.	.	.	.	.	.	.	.	.	.	.
.	.	.	.	.	8g/L	.	.	.	.	.	.	.	.	.	.	.
.	.	.	.	.	16aL/	.	.	.	.	.	.	.	.	.	.	.
.	.	.	.	.	16bJJ/	.	.	.	.	.	.	.	.	.	.	.
=105	=105	=105	=105	=105	=105	=105	=105-	=105	=105-	=105	=105-	=105	=105-	=105	=105	=105
2.GG/_<	.	.	2.B/ 2.d/	.	8g/L	.	.	.	.	.	.	.	.	.	2.B/	2.g\
.	.	.	.	.	8b/J	.	.	.	.	.	.	.	.	.	.	.
.	.	.	.	.	8dd\L	.	.	.	.	.	.	.	.	.	.	.
.	.	.	.	.	8b\	.	.	.	.	.	.	.	.	.	.	.
.	.	.	.	.	8dd\	.	.	.	.	.	.	.	.	.	.	.
.	.	.	.	.	8ee\J	.	.	.	.	.	.	.	.	.	.	.
=106	=106	=106	=106	=106	=106	=106	=106-	=106	=106-	=106	=106-	=106	=106-	=106	=106	=106
2.GG/]	.	.	2.B/ 2.d/	.	8dd\L	.	.	.	.	.	.	.	2.r	.	2.B/	2.g\
.	.	.	.	.	8cc\	.	.	.	.	.	.	.	.	.	.	.
.	.	.	.	.	8dd\	.	.	.	.	.	.	.	.	.	.	.
.	.	.	.	.	8b\J	.	.	.	.	.	.	.	.	.	.	.
.	.	.	.	.	4g/	.	.	.	.	.	.	.	.	.	.	.
!	!	!	!	!	!	!	!	!	!	!	!	!	!LO:LB:g=original	!	!	!
=107	=107	=107	=107	=107	=107	=107	=107-	=107	=107-	=107	=107-	=107	=107	=107	=107	=107
!	!LO:DY:a:rj:t=p.	!	!	!	!	!LO:DY:a:rj:t=p.	!	!	!	!	!	!	!LO:TX:a:t=Solo	!	!	!
4GG/	p	.	4B/ 4d/	.	8b\L	p	.	.	.	.	.	.	8b\L	Glo-	0.r	0.r
.	.	.	.	.	8dd\J	.	.	.	.	.	.	.	8dd\J	.	.	.
4G\	.	.	4B/ 4d/	.	8dd\L	.	.	.	.	.	.	.	8dd\L	-ri-	.	.
.	.	.	.	.	8ee\	.	.	.	.	.	.	.	8ee\J	.	.	.
4G\	.	.	4B/ 4d/	.	8ff#	.	.	.	.	.	.	.	8ff#\L	-a	.	.
.	.	.	.	.	8gg\J	.	.	.	.	.	.	.	8gg\J	.	.	.
=108	=108	=108	=108	=108	=108	=108	=108-	=108	=108-	=108	=108-	=108	=108	=108	=108-	=108-
4G\	.	6: 4:	4c/ 4e/	.	8ff#\L	.	0.r	.	0.r	.	0.r	.	4ee\	pa-	.	.
.	.	.	.	.	8ee\	.	.	.	.	.	.	.	.	.	.	.
4G\	.	.	4c/ 4e/	.	8ee\	.	.	.	.	.	.	.	4ee\	-tri	.	.
.	.	.	.	.	8cc\	.	.	.	.	.	.	.	.	.	.	.
4G\	.	.	4c/ 4e/	.	8gg\	.	.	.	.	.	.	.	8gg\L	et	.	.
.	.	.	.	.	8ee\J	.	.	.	.	.	.	.	8ee\J	.	.	.
=109	=109	=109	=109	=109	=109	=109	=109-	=109	=109-	=109	=109-	=109	=109	=109	=109-	=109-
4G\	.	x 3:	4B/ 4d/	.	8ee\L	.	.	.	.	.	.	.	8ee\	fi-	.	.
.	.	.	.	.	8dd\J	.	.	.	.	.	.	.	8dd\	-li-	.	.
4G\	.	.	4B/ 4d/	.	4dd\	.	.	.	.	.	.	.	4dd\	-o	.	.
4G\	.	.	4B/ 4d/	.	8cc\L	.	.	.	.	.	.	.	8cc\	et	.	.
.	.	.	.	.	8b\J	.	.	.	.	.	.	.	8b\	spi-	.	.
!	!	!	!	!	!LO:LB:g=original	!	!	!	!	!	!	!	!	!	!	!
=110	=110	=110	=110	=110	=110	=110	=110-	=110	=110-	=110	=110-	=110	=110	=110	=110-	=110-
4F#\	.	6: 5:	4A/ 4d/	.	8aL/	.	.	.	.	.	.	.	4a\	-ri-	.	.
.	.	.	.	.	16aL/	.	.	.	.	.	.	.	.	.	.	.
.	.	.	.	.	16gJJ/	.	.	.	.	.	.	.	.	.	.	.
4F#\	.	.	4A/ 4d/	.	8a\L	.	.	.	.	.	.	.	8a\L	-tu-	.	.
.	.	.	.	.	8cc\	.	.	.	.	.	.	.	8cc\J	.	.	.
4G\	.	x 3	4B/ 4d/	.	8b\	.	.	.	.	.	.	.	8b\L	-i	.	.
.	.	.	.	.	8dd\J	.	.	.	.	.	.	.	8dd\J	.	.	.
=111	=111	=111	=111	=111	=111	=111	=111-	=111	=111-	=111	=111-	=111	=111	=111	=111-	=111-
4c\	.	6 x	8e/L	.	8ee\L	.	.	.	.	.	.	.	8ee\L	ſanc-	1.r	1.r
.	.	.	8a/J	.	16ddL\	.	.	.	.	.	.	.	8cc\J	.	.	.
.	.	.	.	.	16ccJJ\	.	.	.	.	.	.	.	.	.	.	.
!	!	!	!	!	!	!	!	!	!	!	!	!	!LO:LB:g=original	!	!	!
4d\	.	x 4	4g/	.	4b\	.	.	.	.	.	.	.	4b\	.	.	.
4D\	.	x 3	4f#/	.	4a\	.	.	.	.	.	.	.	4a\	.	.	.
=112	=112	=112	=112	=112	=112	=112	=112	=112	=112	=112	=112	=112	=112	=112	=112-	=112-
4G\	.	.	8g/L	.	8b\L	.	2.r	.	2.r	.	2.r	.	4b\	-to	.	.
.	.	.	16a/L	.	16cc\L	.	.	.	.	.	.	.	.	.	.	.
.	.	.	16b/JJ	.	16dd\JJ	.	.	.	.	.	.	.	.	.	.	.
!	!	!	!	!	!	!LO:DY:a:rj:t=for	!	!	!	!	!	!	!	!	!	!
4r	.	.	8cc\L	.	8eeL\	f	.	.	.	.	.	.	4r	.	.	.
.	.	.	8b\	.	8dd\	.	.	.	.	.	.	.	.	.	.	.
4r	.	.	8cc\	.	8ee\	.	.	.	.	.	.	.	4r	.	.	.
.	.	.	8a\J	.	8ff#\J	.	.	.	.	.	.	.	.	.	.	.
!	!	!	!LO:LB:g=original	!	!	!	!	!	!	!	!	!	!	!	!	!
=113	=113	=113	=113	=113	=113	=113	=113	=113	=113	=113	=113	=113	=113	=113	=113	=113
!LO:TX:a:t=Tutti:rj	!	!	!	!	!	!	!	!	!	!	!	!	!	!	!	!
4G\	.	.	4b/	.	4gg\	.	(>4G\	ſi-	2d\	ſi-	2b\	ſi-	2gg\	ſi-	4g\	4b\
4d\	.	x 4	8b/L	.	8bb\L	.	4d\)	.	.	.	.	.	.	.	4g\	4b\
.	.	.	8g/	.	8gg\	.	.	.	.	.	.	.	.	.	.	.
4D\	.	x 3	8a/	.	8aa\	.	4D\	-cut	4d\	-cut	4a\	-cut	4ff#\	-cut	4d/	4a\
.	.	.	8f#/J	.	8ff#\J	.	.	.	.	.	.	.	.	.	.	.
!LO:LB:g=original	!	!	!	!	!	!	!	!	!	!	!	!	!	!	!LO:LB:g=original	!
=114	=114	=114	=114	=114	=114	=114	=114	=114	=114	=114	=114	=114	=114	=114	=114	=114
4G\	.	.	8g/L	.	8gg\L	.	4G\	e-	4d\	e-	4b\	e-	4gg\	e-	4B/	4g\
.	.	.	16g/L	.	16gg\L	.	.	.	.	.	.	.	.	.	.	.
.	.	.	16f#/JJ	.	16ff#\JJ	.	.	.	.	.	.	.	.	.	.	.
4GG/	.	.	8g/L	.	8gg\L	.	4G\	-rat	4d\	-rat	4b\	-rat	4gg\	-rat	4B/	4g\
.	.	.	8b/J	.	8bb\J	.	.	.	.	.	.	.	.	.	.	.
4r	.	.	8d/L	.	8dd\L	.	4r	.	4r	.	4r	.	4r	.	4r	4r
.	.	.	16e/L	.	16ee\L	.	.	.	.	.	.	.	.	.	.	.
.	.	.	16f#/JJ	.	16ff#JJ\	.	.	.	.	.	.	.	.	.	.	.
!	!	!	!	!	!	!	!	!	!LO:PB:g=original	!	!	!	!	!	!	!LO:LB:g=original
=115	=115	=115	=115	=115	=115	=115	=115	=115	=115	=115	=115	=115	=115	=115	=115	=115
4G\	.	.	8g/L	.	8gg\L	.	(>4G\	in	2d\	in	2b\	in	2gg\	in	4g\	4b\
.	.	.	8b/	.	8bb\	.	.	.	.	.	.	.	.	.	.	.
4d\	.	x 4	8b/	.	8bb\	.	4d\)	.	.	.	.	.	.	.	4g\	4b\
.	.	.	8g/	.	8gg\	.	.	.	.	.	.	.	.	.	.	.
4D\	.	x 3	8a/	.	8aa\	.	4D\	prin-	4d\	prin-	4a\	prin-	4ff#\	prin-	4d/	4a\
.	.	.	8f#/J	.	8ff#\J	.	.	.	.	.	.	.	.	.	.	.
!	!	!	!	!	!	!	!	!	!	!	!LO:LB:g=original	!	!	!	!	!
=116	=116	=116	=116	=116	=116	=116	=116	=116	=116	=116	=116	=116	=116	=116	=116	=116
4G\	.	.	8g/L	.	8gg\L	.	8G\	-ci-	8d\	-ci-	8b\	-ci-	8gg\	-ci-	4B/	4g\
.	.	.	16g/L	.	16gg\L	.	8G\	-pi-	8d\	-pi-	8b\	-pi-	8gg\	-pi-	.	.
.	.	.	16f#/JJ	.	16ff#\JJ	.	.	.	.	.	.	.	.	.	.	.
4GG/	.	.	8g/L	.	8gg\L	.	4G\	-o	4d\	-o	4b\	-o	4gg\	-o	4B/	4g\
.	.	.	8b/	.	8bb\	.	.	.	.	.	.	.	.	.	.	.
4r	.	.	8d/	.	8dd\	.	4r	.	4r	.	4r	.	4r	.	4r	4r
.	.	.	8f#/J	.	8ff#J\	.	.	.	.	.	.	.	.	.	.	.
!	!	!	!	!	!LO:LB:g=original	!	!	!	!	!	!	!	!	!	!	!
=117	=117	=117	=117	=117	=117	=117	=117	=117	=117	=117	=117	=117	=117	=117	=117	=117
4G\	.	.	4g/	.	4gg\	.	4G\	et	4d\	et	4g\	et	4b\	et	2.B/	2.g\
4G\	.	.	4d/ 4b/	.	8gg\L	.	4G\	nunc	4d\	nunc	4g\	nunc	4b\	nunc	.	.
.	.	.	.	.	8ff#\	.	.	.	.	.	.	.	.	.	.	.
!	!	!	!	!	!	!	!LO:LB:g=original	!	!	!	!	!	!	!	!	!
4G\	.	.	4d/ 4b/	.	8gg\	.	4G\	et	4d\	et	4g\	et	4b\	et	.	.
.	.	.	.	.	8bb\J	.	.	.	.	.	.	.	.	.	.	.
!	!	!	!	!	!	!	!	!	!	!	!	!	!LO:LB:g=original	!	!	!
=118	=118	=118	=118	=118	=118	=118	=118	=118	=118	=118	=118	=118	=118	=118	=118	=118
4F#\	.	6: 5:	4d/ 4a/	.	4ddd\	.	4F#\	ſem-	4d\	ſem-	4a\	ſem-	4cc\	ſem-	2.d/	2.a\
4F#\	.	.	4d/ 4a/	.	8ddd\L	.	4F#\	-per	4d\	-per	4a\	-per	4cc\	-per	.	.
.	.	.	.	.	8ccc\J	.	.	.	.	.	.	.	.	.	.	.
*	*	*	*	*	*	*	*	*	*	*	*	*	*	*ij	*	*
4F#\	.	.	4d/ 4a/	.	8aa\L	.	4F#\	et	4d\	et	4a\	et	4cc\	et	.	.
.	.	.	.	.	16bb\L	.	.	.	.	.	.	.	.	.	.	.
.	.	.	.	.	16ccc\JJ	.	.	.	.	.	.	.	.	.	.	.
=119	=119	=119	=119	=119	=119	=119	=119	=119	=119	=119	=119	=119	=119	=119	=119	=119
4G\	.	.	4d/ 4b/	.	8bb\L	.	8G\	nunc	8d\	nunc	8g\	nunc	8b\	nunc	2g\	2b\
.	.	.	.	.	8ddd\J	.	8G\	et	8d\	et	8g\	et	8b\	et	.	.
4d\	.	x 4	8b/L	.	8bb\L	.	(>4d\	ſem-	2d\	ſem-	(>4g\	ſem-	(>4b\	ſem-	.	.
.	.	.	8g/	.	8gg\	.	.	.	.	.	.	.	.	.	.	.
4D\	.	x 3	8a/	.	8aa\	.	4D\)	.	.	.	4f#\)	.	4a\)	.	4d/	4a\
.	.	.	8f#/J	.	8ff#\J	.	.	.	.	.	.	.	.	.	.	.
=120	=120	=120	=120	=120	=120	=120	=120	=120	=120	=120	=120	=120	=120	=120	=120	=120
4G\	.	.	4g/	.	4gg\	.	4G\	-per	4d\	-per	4g\	-per	4b\	-per	4B/	4g\
*	*	*	*	*	*	*	*	*	*	*	*	*	*	*Xij	*	*
8G'>\L	.	.	8g/L	.	8g/L	.	8G\L	et	8G/L	et	8g\L	et	8g\L	et	4r	4r
8A'>\	.	.	8a/	.	8a/	.	8A\J	.	8A/J	.	8a\J	.	8a\J	.	.	.
8B'>\	.	.	8b/	.	8b/	.	8B\L	in	8B\L	in	8b\L	in	8b\L	in	4r	4r
8c'>\J	.	.	8cc/J	.	8cc/J	.	8c\J	.	8c\J	.	8cc\J	.	8cc\J	.	.	.
!	!	!	!LO:LB:g=original	!	!	!	!	!	!	!	!	!	!	!	!	!
=121	=121	=121	=121	=121	=121	=121	=121	=121	=121	=121	=121	=121	=121	=121	=121	=121
4d'>\	.	.	4dd\	.	4dd\	.	4d\	ſae-	4d\	ſae-	4dd\	ſae-	4dd\	ſae-	1.r	1.r
8d'>\L	.	.	8dd\L	.	8dd\L	.	8d\L	-cu-	8d\L	-cu-	8dd\L	-cu-	8dd\L	-cu-	.	.
8B'>\	.	.	8b\	.	8b\	.	8B\J	.	8B\J	.	8b\J	.	8b\J	.	.	.
!	!	!	!	!	!	!	!	!	!LO:LB:g=original	!	!	!	!	!	!	!
8c'>\	.	.	8cc\	.	8cc\	.	8c\L	-la	8c\L	-la	8cc\L	-la	8cc\L	-la	.	.
8e'>\J	.	.	8ee\J	.	8ee\J	.	8e\J	.	8e\J	.	8ee\J	.	8ee\J	.	.	.
!	!	!	!	!	!	!	!	!	!	!	!LO:LB:g=original	!	!	!	!	!
=122	=122	=122	=122	=122	=122	=122	=122	=122	=122	=122	=122	=122	=122	=122	=122-	=122-
*	*	*	*2\right	*	*	*	*	*	*	*	*	*	*	*	*	*
2d'>\	.	.	2dd\	.	2dd\	.	2d\	ſae-	2d\	ſae-	2dd\	ſae-	2dd\	ſae-	.	.
8B'>\L	.	.	8b/L	.	8b/L	.	8B\L	cu-	8B\L	cu-	8b\L	cu-	8b\L	cu-	.	.
8G'>\J	.	.	8g/J	.	8g/J	.	8G\J	.	8G\J	.	8g\J	.	8g\J	.	.	.
!LO:LB:g=original	!	!	!	!	!	!	!	!	!	!	!	!	!LO:LB:g=original	!	!	!
=123	=123	=123	=123	=123	=123	=123	=123	=123	=123	=123	=123	=123	=123	=123	=123	=123
8F#'>\L	.	.	8f#/L	.	8f#/L	.	8F#\	-lo-	8F#/	-lo-	8f#\	-lo-	8f#/	-lo-	2.r	2.r
8A'>\J	.	.	8a/J	.	8a/J	.	8A\	-rum	8A\	-rum	8a\	-rum	8a\	-rum	.	.
4D\	.	.	4d/	.	4d/	.	4D\	a-	4D/	a-	4d\	a-	4d/	a-	.	.
8E'>\L	.	.	8e/L	.	8e/L	.	8E\L	.	8E/L	.	8e\L	.	8e/L	.	.	.
8F#'>\J	.	.	8f#/J	.	8f#/J	.	8F#\J	.	8F#/J	.	8f#\J	.	8f#/J	.	.	.
!	!	!	!	!	!	!	!LO:LB:g=original	!	!	!	!	!	!	!	!	!
=124	=124	=124	=124	=124	=124	=124	=124	=124	=124	=124	=124	=124	=124	=124	=124	=124
2.G\	.	.	2.B/ 2.d/	.	8g/L	.	4G\	-men	4G/	-men	4g\	-men	4g\	-men	2.B/	2.g\
.	.	.	.	.	8b/J	.	.	.	.	.	.	.	.	.	.	.
!	!	!	!	!	!LO:LB:g=original	!	!	!	!	!	!	!	!	!	!	!
.	.	.	.	.	8dd\L	.	4r	.	4r	.	4r	.	4r	.	.	.
.	.	.	.	.	16eeL\	.	.	.	.	.	.	.	.	.	.	.
.	.	.	.	.	16dd\JJ	.	.	.	.	.	.	.	.	.	.	.
.	.	.	.	.	8b\L	.	4r	.	4r	.	4r	.	4r	.	.	.
.	.	.	.	.	8cc\J	.	.	.	.	.	.	.	.	.	.	.
=125	=125	=125	=125	=125	=125	=125	=125	=125	=125	=125	=125	=125	=125	=125	=125	=125
2.G\	.	.	2.B/ 2.d/	.	8dd\L	.	1.r	.	1.r	.	1.r	.	1.r	.	2.B/	2.g\
.	.	.	.	.	16ee\L	.	.	.	.	.	.	.	.	.	.	.
.	.	.	.	.	16dd\JJ	.	.	.	.	.	.	.	.	.	.	.
.	.	.	.	.	8b/L	.	.	.	.	.	.	.	.	.	.	.
.	.	.	.	.	8g/	.	.	.	.	.	.	.	.	.	.	.
.	.	.	.	.	8a/	.	.	.	.	.	.	.	.	.	.	.
.	.	.	.	.	8b/J	.	.	.	.	.	.	.	.	.	.	.
!	!	!	!	!	!	!	!	!	!	!	!	!	!	!	!LO:LB:g=original	!
=126	=126	=126	=126	=126	=126	=126	=126-	=126	=126-	=126	=126-	=126	=126-	=126	=126	=126
2.G\	.	.	2.B/ 2.d/	.	8g/L	.	.	.	.	.	.	.	.	.	2.B/	2.g\
.	.	.	.	.	8b/J	.	.	.	.	.	.	.	.	.	.	.
.	.	.	.	.	8dd\L	.	.	.	.	.	.	.	.	.	.	.
.	.	.	.	.	16ee\L	.	.	.	.	.	.	.	.	.	.	.
.	.	.	.	.	16dd\JJ	.	.	.	.	.	.	.	.	.	.	.
.	.	.	.	.	8b\L	.	.	.	.	.	.	.	.	.	.	.
.	.	.	.	.	8cc\J	.	.	.	.	.	.	.	.	.	.	.
=127	=127	=127	=127	=127	=127	=127	=127-	=127	=127-	=127	=127-	=127	=127-	=127	=127	=127
4G\	.	.	2B/ 2d/	.	8dd\L	.	2.r	.	2.r	.	2.r	.	2.r	.	4B/	4g\
.	.	.	.	.	8b\J	.	.	.	.	.	.	.	.	.	.	.
4GG/	.	.	.	.	4g/	.	.	.	.	.	.	.	.	.	4B/	4g\
4r	.	.	4r	.	4r	.	.	.	.	.	.	.	.	.	4r	4r
==	==	==	==	==	==	==	==	==	==	==	==	==	==	==	==	==
*-	*-	*-	*-	*-	*-	*-	*-	*-	*-	*-	*-	*-	*-	*-	*-	*-
!!!system-decoration: [(g1)][(g2)][(g3)]g4
!!!AIN: 1 alto 1 bass 2 cor 1 organ 1 soprn 1 tenor 2 violn
!!!ENC: Filip Voros
!!!END: 2021-11-24
!!!EED: Jędrzej Mróz
!!!EST: 2021-12-02
!!!RDF**kern: > = above
!!!RDF**kern: < = below
